;FLAVOR:Marlin
M117 Time Left 4h37m54s
;TIME:16674
;Filament used: 16.5131m
;Layer height: 0.2
;MINX:42.306
;MINY:80.4
;MINZ:0.2
;MAXX:192.694
;MAXY:153.194
;MAXZ:70
;POSTPROCESSED
;Generated with Cura_SteamEngine 4.8.0
M140 S60
M105
M190 S60
M104 S205
M105
M109 S205
M82 ;absolute extrusion mode
; Ender 3 Custom Start G-code
G92 E0 ; Reset Extruder
G28 ; Home all axes
G1 Z2.0 F3000 ; Move Z Axis up little to prevent scratching of Heat Bed
G1 X0.1 Y20 Z0.3 F5000.0 ; Move to start position
G1 X0.1 Y200.0 Z0.3 F1500.0 E15 ; Draw the first line
G1 X0.4 Y200.0 Z0.3 F5000.0 ; Move to side a little
G1 X0.4 Y20 Z0.3 F1500.0 E30 ; Draw the second line
G92 E0 ; Reset Extruder
G1 Z2.0 F3000 ; Move Z Axis up little to prevent scratching of Heat Bed
G1 X5 Y20 Z0.3 F5000.0 ; Move over to prevent blob squish
G92 E0
G92 E0
G1 F2700 E-5
;LAYER_COUNT:350
;LAYER:0
M107
G0 F6000 X47.697 Y81.782 Z0.2
;TYPE:SKIRT
G1 F2700 E0
G1 F1200 X48.517 Y81.364 E0.03061
G1 X49.371 Y81.019 E0.06125
G1 X50.251 Y80.749 E0.09186
G1 X51.151 Y80.557 E0.12247
G1 X52.065 Y80.443 E0.15311
G1 X52.618 Y80.413 E0.17153
G1 X52.939 Y80.404 E0.18221
G1 X53.236 Y80.4 E0.19209
G1 X181.387 Y80.4 E4.4544
G1 X182.237 Y80.411 E4.48268
G1 X183.156 Y80.464 E4.5133
G1 X184.067 Y80.597 E4.54392
G1 X184.963 Y80.808 E4.57453
G1 X185.837 Y81.096 E4.60514
G1 X186.684 Y81.459 E4.63579
G1 X187.495 Y81.894 E4.6664
G1 X188.265 Y82.398 E4.69701
G1 X188.989 Y82.967 E4.72763
G1 X189.661 Y83.597 E4.75827
G1 X190.276 Y84.282 E4.78889
G1 X190.829 Y85.018 E4.81951
G1 X191.316 Y85.799 E4.85012
G1 X191.733 Y86.62 E4.88075
G1 X192.078 Y87.474 E4.91138
G1 X192.347 Y88.354 E4.94199
G1 X192.539 Y89.255 E4.97263
G1 X192.652 Y90.168 E5.00323
G1 X192.681 Y90.712 E5.02135
G1 X192.69 Y91.032 E5.03199
G1 X192.694 Y91.33 E5.04191
G1 X192.693 Y98.41 E5.27739
G1 X192.683 Y99.138 E5.3016
G1 X192.63 Y100.057 E5.33222
G1 X192.498 Y100.968 E5.36284
G1 X192.287 Y101.864 E5.39345
G1 X192 Y102.739 E5.42408
G1 X191.637 Y103.585 E5.4547
G1 X191.203 Y104.397 E5.48532
G1 X190.699 Y105.167 E5.51593
G1 X190.131 Y105.892 E5.54656
G1 X189.502 Y106.564 E5.57718
G1 X188.817 Y107.179 E5.6078
G1 X188.081 Y107.732 E5.63842
G1 X187.3 Y108.22 E5.66905
G1 X186.48 Y108.638 E5.69966
G1 X185.626 Y108.983 E5.73029
G1 X185.062 Y109.165 E5.75
G1 X184.126 Y109.439 E5.78244
G1 X183.386 Y109.644 E5.80798
G1 X180.968 Y110.384 E5.89209
G1 X178.559 Y111.198 E5.97666
G1 X176.209 Y112.066 E6.05998
G1 X173.855 Y113.012 E6.14436
G1 X171.527 Y114.025 E6.22881
G1 X169.244 Y115.097 E6.31269
G1 X166.98 Y116.238 E6.39702
G1 X164.768 Y117.432 E6.48062
G1 X162.582 Y118.694 E6.56457
G1 X160.422 Y120.024 E6.64894
G1 X158.309 Y121.409 E6.73297
G1 X156.21 Y122.871 E6.81805
G1 X154.207 Y124.352 E6.9009
G1 X152.203 Y125.923 E6.9856
G1 X150.256 Y127.541 E7.0698
G1 X148.371 Y129.2 E7.15332
G1 X146.523 Y130.919 E7.23726
G1 X144.694 Y132.723 E7.32271
G1 X142.959 Y134.532 E7.40607
G1 X141.282 Y136.383 E7.48915
G1 X139.602 Y138.348 E7.57513
G1 X138.03 Y140.293 E7.65831
G1 X136.506 Y142.294 E7.74197
G1 X135.013 Y144.372 E7.82707
G1 X133.62 Y146.43 E7.90973
G1 X132.711 Y147.859 E7.96606
G1 X132.367 Y148.385 E7.98696
G1 X131.83 Y149.133 E8.01759
G1 X131.231 Y149.831 E8.04818
G1 X130.573 Y150.475 E8.0788
G1 X129.861 Y151.059 E8.10943
G1 X129.102 Y151.58 E8.14005
G1 X128.3 Y152.032 E8.17067
G1 X127.462 Y152.413 E8.20129
G1 X126.594 Y152.72 E8.23191
G1 X125.702 Y152.951 E8.26256
G1 X124.794 Y153.103 E8.29318
G1 X123.853 Y153.177 E8.32457
G1 X123.527 Y153.188 E8.33542
G1 X123.17 Y153.194 E8.3473
G1 X112.056 Y153.193 E8.71695
G1 X111.355 Y153.183 E8.74027
G1 X110.436 Y153.13 E8.77089
G1 X109.525 Y152.997 E8.80151
G1 X108.629 Y152.786 E8.83212
G1 X107.754 Y152.498 E8.86276
G1 X106.908 Y152.135 E8.89338
G1 X106.097 Y151.7 E8.92399
G1 X105.326 Y151.196 E8.95463
G1 X104.602 Y150.627 E8.98525
G1 X103.93 Y149.998 E9.01587
G1 X103.315 Y149.313 E9.04649
G1 X102.564 Y148.276 E9.08907
G1 X102.099 Y147.545 E9.11789
G1 X100.686 Y145.392 E9.20354
G1 X99.223 Y143.297 E9.28853
G1 X97.725 Y141.272 E9.37231
G1 X96.158 Y139.275 E9.45673
G1 X94.551 Y137.345 E9.54026
G1 X92.866 Y135.432 E9.62505
G1 X91.149 Y133.59 E9.70881
G1 X89.387 Y131.804 E9.79225
G1 X87.553 Y130.047 E9.87673
G1 X85.67 Y128.344 E9.96117
G1 X83.765 Y126.715 E10.04454
G1 X81.77 Y125.104 E10.12983
G1 X79.77 Y123.583 E10.2134
G1 X77.708 Y122.104 E10.2978
G1 X75.629 Y120.699 E10.38125
G1 X73.492 Y119.342 E10.46545
G1 X71.319 Y118.048 E10.54957
G1 X69.093 Y116.805 E10.63437
G1 X66.874 Y115.646 E10.71763
G1 X64.594 Y114.537 E10.80196
G1 X62.281 Y113.493 E10.88636
G1 X59.922 Y112.505 E10.97143
G1 X57.611 Y111.616 E11.05378
G1 X55.208 Y110.768 E11.13854
G1 X52.811 Y109.997 E11.22229
G1 X50.057 Y109.198 E11.31766
G1 X49.182 Y108.912 E11.34828
G1 X48.335 Y108.551 E11.3789
G1 X47.523 Y108.117 E11.40952
G1 X46.751 Y107.615 E11.44015
G1 X46.026 Y107.047 E11.47079
G1 X45.353 Y106.419 E11.5014
G1 X44.737 Y105.735 E11.53202
G1 X44.183 Y105 E11.56263
G1 X43.694 Y104.22 E11.59325
G1 X43.275 Y103.4 E11.62388
G1 X42.929 Y102.547 E11.65449
G1 X42.658 Y101.667 E11.68512
G1 X42.465 Y100.767 E11.71573
G1 X42.35 Y99.853 E11.74637
G1 X42.319 Y99.288 E11.76519
G1 X42.31 Y98.967 E11.77587
G1 X42.306 Y98.67 E11.78575
G1 X42.307 Y91.531 E12.0232
G1 X42.316 Y90.866 E12.04532
G1 X42.368 Y89.946 E12.07596
G1 X42.5 Y89.035 E12.10658
G1 X42.711 Y88.139 E12.1372
G1 X42.998 Y87.264 E12.16783
G1 X43.361 Y86.418 E12.19844
G1 X43.795 Y85.606 E12.22907
G1 X44.298 Y84.835 E12.25969
G1 X44.867 Y84.111 E12.29031
G1 X45.495 Y83.439 E12.3209
G1 X46.18 Y82.823 E12.35154
G1 X46.916 Y82.27 E12.38216
G1 X47.697 Y81.782 E12.41279
G0 F6000 X48.075 Y82.031
G1 F1200 X48.888 Y81.638 E12.44283
G1 X49.733 Y81.318 E12.47288
G1 X50.602 Y81.075 E12.50289
G1 X51.49 Y80.909 E12.53294
G1 X52.629 Y80.813 E12.57096
G1 X52.95 Y80.804 E12.58164
G1 X53.236 Y80.8 E12.59115
G1 X181.387 Y80.8 E16.85347
G1 X182.231 Y80.811 E16.88154
G1 X183.133 Y80.864 E16.9116
G1 X184.026 Y80.996 E16.94162
G1 X184.904 Y81.207 E16.97165
G1 X185.76 Y81.495 E17.00169
G1 X186.587 Y81.857 E17.03172
G1 X187.379 Y82.292 E17.06177
G1 X188.13 Y82.794 E17.09182
G1 X188.833 Y83.361 E17.12186
G1 X189.483 Y83.988 E17.1519
G1 X190.075 Y84.67 E17.18193
G1 X190.605 Y85.401 E17.21196
G1 X191.067 Y86.177 E17.242
G1 X191.46 Y86.99 E17.27204
G1 X191.778 Y87.835 E17.30206
G1 X192.021 Y88.705 E17.33211
G1 X192.186 Y89.593 E17.36215
G1 X192.281 Y90.723 E17.39987
G1 X192.29 Y91.043 E17.41051
G1 X192.294 Y91.33 E17.42006
G1 X192.293 Y98.404 E17.65534
G1 X192.283 Y99.132 E17.67956
G1 X192.231 Y100.034 E17.70961
G1 X192.099 Y100.927 E17.73963
G1 X191.888 Y101.805 E17.76967
G1 X191.601 Y102.662 E17.79973
G1 X191.239 Y103.489 E17.82975
G1 X190.806 Y104.281 E17.85977
G1 X190.303 Y105.032 E17.88984
G1 X189.737 Y105.735 E17.91985
G1 X189.111 Y106.386 E17.94989
G1 X188.429 Y106.978 E17.97993
G1 X187.698 Y107.508 E18.00996
G1 X186.922 Y107.971 E18.04002
G1 X186.109 Y108.364 E18.07005
G1 X184.95 Y108.781 E18.11102
G1 X183.85 Y109.102 E18.14913
G1 X183.268 Y109.262 E18.16921
G1 X180.828 Y110.009 E18.25408
G1 X178.429 Y110.819 E18.3383
G1 X176.07 Y111.691 E18.42194
G1 X173.682 Y112.651 E18.50755
G1 X171.376 Y113.654 E18.59119
G1 X169.073 Y114.736 E18.67582
G1 X166.789 Y115.887 E18.76088
G1 X164.584 Y117.077 E18.84422
G1 X162.352 Y118.365 E18.92993
G1 X160.223 Y119.676 E19.01309
G1 X158.082 Y121.079 E19.09823
G1 X155.983 Y122.541 E19.18331
G1 X153.951 Y124.044 E19.26737
G1 X151.963 Y125.603 E19.3514
G1 X150.002 Y127.232 E19.43619
G1 X148.079 Y128.924 E19.52138
G1 X146.252 Y130.625 E19.60441
G1 X144.407 Y132.444 E19.69058
G1 X142.691 Y134.233 E19.77303
G1 X140.966 Y136.138 E19.85851
G1 X139.302 Y138.082 E19.94362
G1 X137.703 Y140.061 E20.02824
G1 X136.179 Y142.063 E20.11193
G1 X134.701 Y144.119 E20.19615
G1 X133.269 Y146.236 E20.28115
G1 X132.377 Y147.64 E20.33648
G1 X132.033 Y148.166 E20.35738
G1 X131.505 Y148.899 E20.38743
G1 X130.915 Y149.583 E20.41747
G1 X130.267 Y150.212 E20.44751
G1 X129.566 Y150.781 E20.47754
G1 X128.817 Y151.285 E20.50756
G1 X128.026 Y151.722 E20.53762
G1 X127.2 Y152.087 E20.56766
G1 X126.345 Y152.377 E20.59769
G1 X125.467 Y152.591 E20.62774
G1 X124.574 Y152.726 E20.65778
G1 X123.84 Y152.777 E20.68225
G1 X123.514 Y152.788 E20.6931
G1 X123.17 Y152.794 E20.70455
G1 X112.062 Y152.793 E21.074
G1 X111.361 Y152.783 E21.09732
G1 X110.459 Y152.73 E21.12737
G1 X109.566 Y152.598 E21.15739
G1 X108.687 Y152.387 E21.18746
G1 X107.831 Y152.099 E21.2175
G1 X107.004 Y151.737 E21.24752
G1 X106.212 Y151.303 E21.27756
G1 X105.462 Y150.8 E21.3076
G1 X104.759 Y150.233 E21.33764
G1 X104.109 Y149.607 E21.36765
G1 X103.516 Y148.925 E21.39771
G1 X102.901 Y148.061 E21.43298
G1 X102.448 Y147.349 E21.46105
G1 X101.004 Y145.15 E21.54855
G1 X99.541 Y143.053 E21.63359
G1 X98.046 Y141.033 E21.71718
G1 X96.482 Y139.039 E21.80147
G1 X94.857 Y137.088 E21.88592
G1 X93.158 Y135.159 E21.97141
G1 X91.427 Y133.302 E22.05585
G1 X89.683 Y131.534 E22.13845
G1 X87.814 Y129.744 E22.22452
G1 X85.935 Y128.044 E22.3088
G1 X83.992 Y126.383 E22.39382
G1 X82.056 Y124.82 E22.47658
G1 X79.999 Y123.256 E22.56252
G1 X77.943 Y121.78 E22.6467
G1 X75.837 Y120.357 E22.73124
G1 X73.689 Y118.994 E22.81585
G1 X71.539 Y117.713 E22.89909
G1 X69.294 Y116.459 E22.98462
G1 X67.027 Y115.276 E23.06967
G1 X64.756 Y114.171 E23.15367
G1 X62.451 Y113.13 E23.23779
G1 X60.095 Y112.143 E23.32275
G1 X57.739 Y111.238 E23.40669
G1 X55.326 Y110.385 E23.49182
G1 X52.93 Y109.615 E23.57552
G1 X50.165 Y108.813 E23.67128
G1 X49.307 Y108.531 E23.70132
G1 X48.477 Y108.175 E23.73135
G1 X47.682 Y107.746 E23.7614
G1 X46.928 Y107.249 E23.79144
G1 X46.221 Y106.687 E23.82147
G1 X45.567 Y106.065 E23.85149
G1 X44.97 Y105.387 E23.88154
G1 X44.435 Y104.659 E23.91159
G1 X43.967 Y103.887 E23.94161
G1 X43.569 Y103.076 E23.97166
G1 X43.244 Y102.234 E24.00168
G1 X42.995 Y101.366 E24.03172
G1 X42.824 Y100.479 E24.06176
G1 X42.719 Y99.277 E24.10189
G1 X42.71 Y98.956 E24.11257
G1 X42.706 Y98.67 E24.12208
G1 X42.707 Y91.536 E24.35936
G1 X42.716 Y90.871 E24.38148
G1 X42.768 Y89.969 E24.41153
G1 X42.9 Y89.076 E24.44156
G1 X43.11 Y88.198 E24.47158
G1 X43.397 Y87.341 E24.50164
G1 X43.759 Y86.514 E24.53167
G1 X44.192 Y85.722 E24.56169
G1 X44.694 Y84.971 E24.59174
G1 X45.261 Y84.267 E24.6218
G1 X45.887 Y83.617 E24.65182
G1 X46.568 Y83.024 E24.68185
G1 X47.3 Y82.494 E24.71191
G1 X48.075 Y82.031 E24.74193
G1 F2700 E19.74193
;MESH:yendleft.stl
G0 F6000 X53.326 Y90.335
G0 X53.326 Y91.42
G0 X53.688 Y98.218
G0 X109.521 Y98.561
G0 X109.975 Y98.605
G0 X110.434 Y98.744
G0 X110.857 Y98.97
G0 X111.226 Y99.274
G0 X111.53 Y99.643
G0 X111.756 Y100.066
G0 X111.895 Y100.525
G0 X111.939 Y100.979
G0 X112.282 Y141.812
G0 X122.9 Y141.994
;TYPE:WALL-INNER
G1 F2700 E24.74193
G1 F1200 X112.1 Y141.994 E25.10114
G1 X112.1 Y100.97 E26.46561
G1 X112.053 Y100.493 E26.48155
G1 X111.905 Y100.004 E26.49854
G1 X111.664 Y99.553 E26.51555
G1 X111.34 Y99.16 E26.53249
G1 X110.947 Y98.836 E26.54943
G1 X110.496 Y98.595 E26.56644
G1 X110.007 Y98.447 E26.58343
G1 X109.53 Y98.4 E26.59937
G1 X53.506 Y98.4 E28.46274
G1 X53.506 Y91.6 E28.68891
G1 X181.494 Y91.6 E32.94581
G1 X181.494 Y98.4 E33.17198
G1 X125.47 Y98.4 E35.03534
G1 X124.993 Y98.447 E35.05128
G1 X124.504 Y98.595 E35.06828
G1 X124.053 Y98.836 E35.08528
G1 X123.66 Y99.16 E35.10222
G1 X123.336 Y99.553 E35.11916
G1 X123.095 Y100.004 E35.13617
G1 X122.947 Y100.493 E35.15317
G1 X122.9 Y100.97 E35.16911
G1 X122.9 Y141.994 E36.53357
G0 F6000 X123.3 Y142.394
;TYPE:WALL-OUTER
G1 F1200 X111.7 Y142.394 E36.91939
G1 X111.7 Y100.99 E38.29649
G1 X111.659 Y100.571 E38.31049
G1 X111.534 Y100.158 E38.32485
G1 X111.33 Y99.777 E38.33922
G1 X111.056 Y99.444 E38.35356
G1 X110.723 Y99.17 E38.36791
G1 X110.342 Y98.966 E38.38228
G1 X109.929 Y98.841 E38.39663
G1 X109.51 Y98.8 E38.41063
G1 X53.106 Y98.8 E40.28664
G1 X53.106 Y91.2 E40.53942
G1 X181.894 Y91.2 E44.82292
G1 X181.894 Y98.8 E45.0757
G1 X125.49 Y98.8 E46.9517
G1 X125.071 Y98.841 E46.96571
G1 X124.658 Y98.966 E46.98006
G1 X124.277 Y99.17 E46.99443
G1 X123.944 Y99.444 E47.00878
G1 X123.67 Y99.777 E47.02312
G1 X123.466 Y100.158 E47.03749
G1 X123.341 Y100.571 E47.05184
G1 X123.3 Y100.99 E47.06585
G1 X123.3 Y142.394 E48.44295
G0 F6000 X123.03 Y142.124
G0 X122.79 Y141.604
G0 X122.51 Y141.604
;TYPE:SKIN
G1 F1200 X112.49 Y141.604 E48.77622
G1 X112.49 Y100.951 E50.12834
G1 X112.437 Y100.417 E50.14619
G1 X112.267 Y99.854 E50.16575
G1 X111.99 Y99.335 E50.18532
G1 X111.617 Y98.883 E50.20481
G1 X111.165 Y98.51 E50.2243
G1 X110.646 Y98.233 E50.24387
G1 X110.083 Y98.063 E50.26343
G1 X109.549 Y98.01 E50.28127
G1 X53.896 Y98.01 E52.1323
G1 X53.896 Y91.99 E52.33253
G1 X181.104 Y91.99 E56.56348
G1 X181.104 Y98.01 E56.76371
G1 X125.451 Y98.01 E58.61473
G1 X124.917 Y98.063 E58.63258
G1 X124.354 Y98.233 E58.65214
G1 X123.835 Y98.51 E58.67171
G1 X123.383 Y98.883 E58.6912
G1 X123.01 Y99.335 E58.71069
G1 X122.733 Y99.854 E58.73026
G1 X122.563 Y100.417 E58.74982
G1 X122.51 Y100.951 E58.76767
G1 X122.51 Y141.604 E60.11979
G1 F2700 E55.11979
G0 F6000 X122.79 Y141.604
G0 X123.061 Y100.979
G0 X123.105 Y100.525
G0 X123.244 Y100.066
G0 X123.47 Y99.643
G0 X123.774 Y99.274
G0 X124.143 Y98.97
G0 X124.566 Y98.744
G0 X125.025 Y98.605
G0 X125.479 Y98.561
G0 X181.312 Y98.218
G0 X181.384 Y92.696
G0 X180.943 Y92.696
G1 F2700 E60.11979
G1 F1200 X180.397 Y92.15 E60.14547
G0 F6000 X179.831 Y92.15
G1 F1200 X180.943 Y93.262 E60.19778
G0 F6000 X180.943 Y93.828
G1 F1200 X179.265 Y92.15 E60.27671
G0 F6000 X178.7 Y92.15
G1 F1200 X180.943 Y94.393 E60.38221
G0 F6000 X180.943 Y94.959
G1 F1200 X178.134 Y92.15 E60.51434
G0 F6000 X177.568 Y92.15
G1 F1200 X180.943 Y95.525 E60.67309
G0 F6000 X180.943 Y96.09
G1 F1200 X177.002 Y92.15 E60.85844
G0 F6000 X176.437 Y92.15
G1 F1200 X180.943 Y96.656 E61.07039
G0 F6000 X180.943 Y97.222
G1 F1200 X175.871 Y92.15 E61.30896
G0 F6000 X175.305 Y92.15
G1 F1200 X180.943 Y97.787 E61.57413
G0 F6000 X180.44 Y97.85
G1 F1200 X174.74 Y92.15 E61.84224
G0 F6000 X174.174 Y92.15
G1 F1200 X179.874 Y97.85 E62.11035
G0 F6000 X179.308 Y97.85
G1 F1200 X173.608 Y92.15 E62.37846
G0 F6000 X173.043 Y92.15
G1 F1200 X178.743 Y97.85 E62.64657
G0 F6000 X178.177 Y97.85
G1 F1200 X172.477 Y92.15 E62.91468
G0 F6000 X171.911 Y92.15
G1 F1200 X177.611 Y97.85 E63.18279
G0 F6000 X177.046 Y97.85
G1 F1200 X171.346 Y92.15 E63.4509
G0 F6000 X170.78 Y92.15
G1 F1200 X176.48 Y97.85 E63.71901
G0 F6000 X175.914 Y97.85
G1 F1200 X170.214 Y92.15 E63.98712
G0 F6000 X169.649 Y92.15
G1 F1200 X175.349 Y97.85 E64.25523
G0 F6000 X174.783 Y97.85
G1 F1200 X169.083 Y92.15 E64.52334
G0 F6000 X168.517 Y92.15
G1 F1200 X174.217 Y97.85 E64.79145
G0 F6000 X173.651 Y97.85
G1 F1200 X167.952 Y92.15 E65.05954
G0 F6000 X167.386 Y92.15
G1 F1200 X173.086 Y97.85 E65.32765
G0 F6000 X172.52 Y97.85
G1 F1200 X166.82 Y92.15 E65.59576
G0 F6000 X166.254 Y92.15
G1 F1200 X171.954 Y97.85 E65.86387
G0 F6000 X171.389 Y97.85
G1 F1200 X165.689 Y92.15 E66.13198
G0 F6000 X165.123 Y92.15
G1 F1200 X170.823 Y97.85 E66.40009
G0 F6000 X170.257 Y97.85
G1 F1200 X164.557 Y92.15 E66.6682
G0 F6000 X163.992 Y92.15
G1 F1200 X169.692 Y97.85 E66.93631
G0 F6000 X169.126 Y97.85
G1 F1200 X163.426 Y92.15 E67.20442
G0 F6000 X162.86 Y92.15
G1 F1200 X168.56 Y97.85 E67.47254
G0 F6000 X167.995 Y97.85
G1 F1200 X162.295 Y92.15 E67.74065
G0 F6000 X161.729 Y92.15
G1 F1200 X167.429 Y97.85 E68.00876
G0 F6000 X166.863 Y97.85
G1 F1200 X161.163 Y92.15 E68.27687
G0 F6000 X160.598 Y92.15
G1 F1200 X166.298 Y97.85 E68.54498
G0 F6000 X165.732 Y97.85
G1 F1200 X160.032 Y92.15 E68.81309
G0 F6000 X159.466 Y92.15
G1 F1200 X165.166 Y97.85 E69.0812
G0 F6000 X164.601 Y97.85
G1 F1200 X158.901 Y92.15 E69.34931
G0 F6000 X158.335 Y92.15
G1 F1200 X164.035 Y97.85 E69.61742
G0 F6000 X163.469 Y97.85
G1 F1200 X157.769 Y92.15 E69.88553
G0 F6000 X157.203 Y92.15
G1 F1200 X162.903 Y97.85 E70.15364
G0 F6000 X162.338 Y97.85
G1 F1200 X156.638 Y92.15 E70.42175
G0 F6000 X156.072 Y92.15
G1 F1200 X161.772 Y97.85 E70.68986
G0 F6000 X161.206 Y97.85
G1 F1200 X155.506 Y92.15 E70.95797
G0 F6000 X154.941 Y92.15
G1 F1200 X160.641 Y97.85 E71.22608
G0 F6000 X160.075 Y97.85
G1 F1200 X154.375 Y92.15 E71.49419
