;FLAVOR:Marlin
M117 Time Left 4h21m37s
;TIME:15697
;Filament used: 15.1315m
;Layer height: 0.2
;MINX:74.306
;MINY:41.806
;MINZ:0.2
;MAXX:162.1
;MAXY:193.194
;MAXZ:70
;POSTPROCESSED
;Generated with Cura_SteamEngine 4.8.0
M140 S60
M105
M190 S60
M104 S205
M105
M109 S205
M82 ;absolute extrusion mode
; Ender 3 Custom Start G-code
G92 E0 ; Reset Extruder
G28 ; Home all axes
G1 Z2.0 F3000 ; Move Z Axis up little to prevent scratching of Heat Bed
G1 X0.1 Y20 Z0.3 F5000.0 ; Move to start position
G1 X0.1 Y200.0 Z0.3 F1500.0 E15 ; Draw the first line
G1 X0.4 Y200.0 Z0.3 F5000.0 ; Move to side a little
G1 X0.4 Y20 Z0.3 F1500.0 E30 ; Draw the second line
G92 E0 ; Reset Extruder
G1 Z2.0 F3000 ; Move Z Axis up little to prevent scratching of Heat Bed
G1 X5 Y20 Z0.3 F5000.0 ; Move over to prevent blob squish
G92 E0
G92 E0
G1 F2700 E-5
;LAYER_COUNT:350
;LAYER:0
M107
G0 F6000 X133.456 Y49.054 Z0.2
;TYPE:SKIRT
G1 F2700 E0
G1 F1200 X133.786 Y48.194 E0.03064
G1 X134.188 Y47.366 E0.06125
G1 X134.662 Y46.577 E0.09186
G1 X135.202 Y45.831 E0.12249
G1 X135.804 Y45.135 E0.1531
G1 X136.465 Y44.494 E0.18373
G1 X137.179 Y43.913 E0.21434
G1 X137.941 Y43.395 E0.24499
G1 X138.744 Y42.946 E0.27559
G1 X139.584 Y42.569 E0.30621
G1 X140.453 Y42.265 E0.33683
G1 X141.345 Y42.038 E0.36745
G1 X142.254 Y41.89 E0.39808
G1 X143.212 Y41.819 E0.43003
G1 X143.533 Y41.81 E0.44071
G1 X143.83 Y41.806 E0.45059
G1 X150.793 Y41.806 E0.68218
G1 X151.643 Y41.817 E0.71045
G1 X152.562 Y41.87 E0.74107
G1 X153.473 Y42.003 E0.77169
G1 X154.369 Y42.214 E0.80231
G1 X155.243 Y42.502 E0.83291
G1 X156.09 Y42.865 E0.86356
G1 X156.901 Y43.3 E0.89417
G1 X157.671 Y43.804 E0.92478
G1 X158.395 Y44.373 E0.95541
G1 X159.067 Y45.003 E0.98604
G1 X159.682 Y45.688 E1.01666
G1 X160.235 Y46.424 E1.04728
G1 X160.722 Y47.205 E1.07789
G1 X161.139 Y48.026 E1.10852
G1 X161.484 Y48.88 E1.13916
G1 X161.753 Y49.76 E1.16976
G1 X161.945 Y50.661 E1.2004
G1 X162.058 Y51.574 E1.231
G1 X162.087 Y52.118 E1.24912
G1 X162.096 Y52.438 E1.25977
G1 X162.1 Y52.736 E1.26968
G1 X162.099 Y181.989 E5.56865
G1 X162.09 Y182.716 E5.59283
G1 X162.039 Y183.635 E5.62345
G1 X161.908 Y184.547 E5.65409
G1 X161.698 Y185.443 E5.6847
G1 X161.412 Y186.318 E5.71532
G1 X161.051 Y187.165 E5.74594
G1 X160.617 Y187.977 E5.77656
G1 X160.115 Y188.749 E5.80719
G1 X159.547 Y189.474 E5.83782
G1 X158.919 Y190.147 E5.86844
G1 X158.235 Y190.763 E5.89906
G1 X157.5 Y191.317 E5.92967
G1 X156.72 Y191.806 E5.96029
G1 X155.9 Y192.225 E5.99092
G1 X155.047 Y192.571 E6.02153
G1 X154.167 Y192.842 E6.05216
G1 X153.267 Y193.035 E6.08277
G1 X152.353 Y193.15 E6.11341
G1 X151.788 Y193.181 E6.13223
G1 X151.467 Y193.19 E6.14291
G1 X151.17 Y193.194 E6.15279
G1 X140.056 Y193.193 E6.52244
G1 X139.355 Y193.183 E6.54576
G1 X138.436 Y193.13 E6.57638
G1 X137.525 Y192.997 E6.607
G1 X136.629 Y192.786 E6.63762
G1 X135.754 Y192.498 E6.66826
G1 X134.908 Y192.135 E6.69887
G1 X134.097 Y191.7 E6.72948
G1 X133.326 Y191.196 E6.76012
G1 X132.602 Y190.627 E6.79075
G1 X131.93 Y189.998 E6.82136
G1 X131.315 Y189.313 E6.85198
G1 X130.571 Y188.287 E6.89413
G1 X130.394 Y188.008 E6.90512
G1 X129.148 Y185.989 E6.98403
G1 X127.778 Y183.903 E7.06704
G1 X126.321 Y181.816 E7.15169
G1 X124.815 Y179.781 E7.2359
G1 X123.256 Y177.798 E7.31979
G1 X121.635 Y175.85 E7.40408
G1 X119.981 Y173.975 E7.48724
G1 X118.224 Y172.091 E7.57293
G1 X116.479 Y170.322 E7.65557
G1 X114.626 Y168.549 E7.74087
G1 X112.787 Y166.886 E7.82334
G1 X110.838 Y165.222 E7.90857
G1 X108.861 Y163.627 E7.99306
G1 X106.853 Y162.1 E8.07696
G1 X104.807 Y160.633 E8.1607
G1 X102.708 Y159.216 E8.24493
G1 X100.582 Y157.867 E8.32867
G1 X98.406 Y156.571 E8.41291
G1 X96.186 Y155.332 E8.49747
G1 X93.937 Y154.159 E8.58184
G1 X91.691 Y153.068 E8.66489
G1 X89.362 Y152.016 E8.74988
G1 X87.035 Y151.043 E8.83377
G1 X84.677 Y150.137 E8.91779
G1 X82.212 Y149.268 E9.00472
G1 X81.526 Y149.036 E9.02881
G1 X80.668 Y148.704 E9.05941
G1 X79.841 Y148.299 E9.09004
G1 X79.052 Y147.824 E9.12067
G1 X78.308 Y147.281 E9.1513
G1 X77.614 Y146.677 E9.1819
G1 X76.975 Y146.014 E9.21253
G1 X76.396 Y145.299 E9.24313
G1 X75.881 Y144.536 E9.27375
G1 X75.434 Y143.731 E9.30437
G1 X75.058 Y142.89 E9.33501
G1 X74.757 Y142.02 E9.36563
G1 X74.533 Y141.127 E9.39625
G1 X74.387 Y140.218 E9.42687
G1 X74.321 Y139.321 E9.45679
G1 X74.311 Y138.998 E9.46754
G1 X74.306 Y138.67 E9.47845
G1 X74.307 Y131.545 E9.71542
G1 X74.317 Y130.854 E9.73841
G1 X74.37 Y129.935 E9.76903
G1 X74.503 Y129.023 E9.79968
G1 X74.715 Y128.127 E9.8303
G1 X75.003 Y127.253 E9.86091
G1 X75.366 Y126.407 E9.89153
G1 X75.801 Y125.596 E9.92214
G1 X76.305 Y124.825 E9.95278
G1 X76.874 Y124.101 E9.9834
G1 X77.504 Y123.43 E10.01402
G1 X78.189 Y122.815 E10.04463
G1 X78.925 Y122.262 E10.07525
G1 X79.707 Y121.775 E10.10589
G1 X80.526 Y121.359 E10.13645
G1 X81.11 Y121.093 E10.15779
G1 X83.519 Y119.961 E10.24632
G1 X85.764 Y118.827 E10.32997
G1 X87.985 Y117.626 E10.41395
G1 X90.183 Y116.355 E10.4984
G1 X92.334 Y115.028 E10.58246
G1 X94.429 Y113.653 E10.66581
G1 X96.517 Y112.195 E10.75051
G1 X98.539 Y110.698 E10.83419
G1 X100.562 Y109.11 E10.91973
G1 X102.467 Y107.523 E11.0022
G1 X104.39 Y105.829 E11.08743
G1 X106.225 Y104.118 E11.17088
G1 X108.015 Y102.35 E11.25456
G1 X109.771 Y100.518 E11.33896
G1 X111.485 Y98.624 E11.42392
G1 X113.103 Y96.73 E11.50678
G1 X114.703 Y94.747 E11.59152
G1 X116.236 Y92.731 E11.67576
G1 X117.715 Y90.669 E11.76016
G1 X119.112 Y88.601 E11.84316
G1 X120.472 Y86.458 E11.92758
G1 X121.775 Y84.271 E12.01225
G1 X122.993 Y82.089 E12.09537
G1 X124.179 Y79.814 E12.1807
G1 X125.286 Y77.539 E12.26485
G1 X126.307 Y75.277 E12.34739
G1 X127.305 Y72.893 E12.43335
G1 X128.207 Y70.546 E12.51698
G1 X129.046 Y68.169 E12.60082
G1 X129.82 Y65.763 E12.68488
G1 X130.517 Y63.362 E12.76804
G1 X131.164 Y60.875 E12.85351
G1 X131.734 Y58.403 E12.93788
G1 X132.227 Y55.94 E13.02143
G1 X132.651 Y53.461 E13.10508
G1 X133.026 Y50.843 E13.19304
G1 X133.202 Y49.939 E13.22367
G1 X133.456 Y49.054 E13.2543
G0 F6000 X133.846 Y49.148
G1 F1200 X134.173 Y48.306 E13.28434
G1 X134.573 Y47.497 E13.31436
G1 X135.043 Y46.725 E13.34442
G1 X135.58 Y45.999 E13.37445
G1 X136.178 Y45.323 E13.40447
G1 X136.834 Y44.702 E13.43452
G1 X137.543 Y44.142 E13.46457
G1 X138.298 Y43.647 E13.49459
G1 X139.094 Y43.22 E13.52464
G1 X139.925 Y42.866 E13.55468
G1 X140.783 Y42.586 E13.5847
G1 X141.663 Y42.383 E13.61474
G1 X142.558 Y42.259 E13.64479
G1 X143.223 Y42.219 E13.66695
G1 X143.544 Y42.21 E13.67763
G1 X143.83 Y42.206 E13.68714
G1 X150.793 Y42.206 E13.91873
G1 X151.637 Y42.217 E13.9468
G1 X152.539 Y42.27 E13.97686
G1 X153.432 Y42.402 E14.00688
G1 X154.31 Y42.613 E14.03691
G1 X155.166 Y42.901 E14.06695
G1 X155.993 Y43.263 E14.09698
G1 X156.785 Y43.698 E14.12703
G1 X157.536 Y44.2 E14.15708
G1 X158.239 Y44.767 E14.18712
G1 X158.889 Y45.394 E14.21715
G1 X159.481 Y46.076 E14.24719
G1 X160.011 Y46.807 E14.27722
G1 X160.473 Y47.583 E14.30726
G1 X160.866 Y48.396 E14.33729
G1 X161.184 Y49.241 E14.36732
G1 X161.427 Y50.111 E14.39737
G1 X161.592 Y50.999 E14.42741
G1 X161.687 Y52.129 E14.46512
G1 X161.696 Y52.449 E14.47577
G1 X161.7 Y52.736 E14.48532
G1 X161.699 Y181.984 E18.78412
G1 X161.69 Y182.711 E18.80831
G1 X161.639 Y183.613 E18.83836
G1 X161.508 Y184.507 E18.86841
G1 X161.299 Y185.385 E18.89843
G1 X161.013 Y186.242 E18.92848
G1 X160.652 Y187.07 E18.95852
G1 X160.22 Y187.862 E18.98852
G1 X159.719 Y188.614 E19.01858
G1 X159.153 Y189.318 E19.04862
G1 X158.528 Y189.969 E19.07864
G1 X157.847 Y190.563 E19.10869
G1 X157.116 Y191.094 E19.13874
G1 X156.342 Y191.558 E19.16876
G1 X155.529 Y191.952 E19.19881
G1 X154.685 Y192.272 E19.22883
G1 X153.815 Y192.517 E19.25889
G1 X152.928 Y192.683 E19.28891
G1 X151.777 Y192.781 E19.32733
G1 X151.456 Y192.79 E19.33801
G1 X151.17 Y192.794 E19.34752
G1 X140.062 Y192.793 E19.71697
G1 X139.361 Y192.783 E19.74029
G1 X138.459 Y192.73 E19.77034
G1 X137.566 Y192.598 E19.80037
G1 X136.687 Y192.387 E19.83043
G1 X135.831 Y192.099 E19.86047
G1 X135.004 Y191.737 E19.8905
G1 X134.212 Y191.303 E19.92054
G1 X133.462 Y190.8 E19.95057
G1 X132.759 Y190.233 E19.98061
G1 X132.109 Y189.607 E20.01063
G1 X131.516 Y188.925 E20.04069
G1 X130.908 Y188.072 E20.07553
G1 X130.735 Y187.798 E20.0863
G1 X129.496 Y185.789 E20.16481
G1 X128.108 Y183.676 E20.24889
G1 X126.637 Y181.571 E20.33431
G1 X125.135 Y179.541 E20.4183
G1 X123.579 Y177.562 E20.50203
G1 X121.926 Y175.575 E20.588
G1 X120.273 Y173.701 E20.67111
G1 X118.519 Y171.82 E20.75665
G1 X116.775 Y170.053 E20.83922
G1 X114.906 Y168.264 E20.92528
G1 X113.032 Y166.569 E21.00932
G1 X111.065 Y164.89 E21.09533
G1 X109.148 Y163.344 E21.17724
G1 X107.082 Y161.772 E21.26359
G1 X105.042 Y160.309 E21.34709
G1 X102.916 Y158.874 E21.4324
G1 X100.795 Y157.528 E21.51595
G1 X98.584 Y156.211 E21.60154
G1 X96.387 Y154.986 E21.68521
G1 X94.118 Y153.802 E21.77033
G1 X91.852 Y152.701 E21.85412
G1 X89.545 Y151.66 E21.93831
G1 X87.155 Y150.66 E22.02447
G1 X84.849 Y149.774 E22.10664
G1 X82.318 Y148.881 E22.19591
G1 X81.654 Y148.657 E22.21921
G1 X80.812 Y148.331 E22.24924
G1 X80.002 Y147.931 E22.27929
G1 X79.231 Y147.462 E22.30931
G1 X78.504 Y146.926 E22.33935
G1 X77.827 Y146.327 E22.36941
G1 X77.207 Y145.672 E22.39941
G1 X76.646 Y144.964 E22.42946
G1 X76.15 Y144.209 E22.4595
G1 X75.723 Y143.413 E22.48954
G1 X75.368 Y142.582 E22.5196
G1 X75.088 Y141.724 E22.54962
G1 X74.885 Y140.844 E22.57966
G1 X74.761 Y139.949 E22.60971
G1 X74.721 Y139.309 E22.63104
G1 X74.711 Y138.986 E22.64178
G1 X74.706 Y138.67 E22.6523
G1 X74.707 Y131.55 E22.88911
G1 X74.717 Y130.859 E22.91209
G1 X74.77 Y129.958 E22.94211
G1 X74.903 Y129.065 E22.97214
G1 X75.114 Y128.186 E23.00221
G1 X75.402 Y127.33 E23.03225
G1 X75.764 Y126.503 E23.06227
G1 X76.198 Y125.711 E23.09231
G1 X76.701 Y124.961 E23.12235
G1 X77.268 Y124.258 E23.15239
G1 X77.895 Y123.608 E23.18242
G1 X78.577 Y123.016 E23.21246
G1 X79.309 Y122.487 E23.2425
G1 X80.084 Y122.024 E23.27253
G1 X80.692 Y121.723 E23.29509
G1 X81.299 Y121.447 E23.31727
G1 X83.677 Y120.329 E23.40467
G1 X85.971 Y119.171 E23.49013
G1 X88.182 Y117.975 E23.57374
G1 X90.361 Y116.714 E23.65748
G1 X92.542 Y115.369 E23.7427
G1 X94.671 Y113.971 E23.82741
G1 X96.762 Y112.512 E23.91222
G1 X98.778 Y111.019 E23.99566
G1 X100.798 Y109.434 E24.08105
G1 X102.724 Y107.83 E24.16442
G1 X104.663 Y106.121 E24.25039
G1 X106.495 Y104.413 E24.33369
G1 X108.321 Y102.609 E24.41907
G1 X110.057 Y100.798 E24.5025
G1 X111.769 Y98.905 E24.58739
G1 X113.416 Y96.977 E24.67173
G1 X115.017 Y94.994 E24.7565
G1 X116.564 Y92.96 E24.8415
G1 X118.027 Y90.92 E24.92499
G1 X119.464 Y88.792 E25.01039
G1 X120.82 Y86.655 E25.09457
G1 X122.11 Y84.491 E25.17837
G1 X123.354 Y82.263 E25.26324
G1 X124.536 Y79.995 E25.3483
G1 X125.632 Y77.742 E25.43163
G1 X126.688 Y75.404 E25.51696
G1 X127.684 Y73.026 E25.60271
G1 X128.57 Y70.719 E25.6849
G1 X129.429 Y68.287 E25.77069
G1 X130.202 Y65.881 E25.85474
G1 X130.912 Y63.437 E25.93939
G1 X131.548 Y60.995 E26.02332
G1 X132.123 Y58.5 E26.10848
G1 X132.619 Y56.021 E26.19257
G1 X133.049 Y53.507 E26.2774
G1 X133.422 Y50.902 E26.36492
G1 X133.595 Y50.016 E26.39495
G1 X133.846 Y49.148 E26.425
G1 F2700 E21.425
;MESH:ystepperleft.stl
G0 F6000 X133.846 Y130.335
G0 X133.846 Y131.42
G0 X85.688 Y131.782
G0 X85.688 Y138.218
G0 X137.521 Y138.561
G0 X137.975 Y138.605
G0 X138.434 Y138.744
G0 X138.857 Y138.97
G0 X139.226 Y139.274
G0 X139.53 Y139.643
G0 X139.756 Y140.066
G0 X139.895 Y140.525
G0 X140.1 Y181.994
;TYPE:WALL-INNER
G1 F2700 E26.425
G1 F1200 X140.1 Y140.97 E27.78947
G1 X140.053 Y140.493 E27.80541
G1 X139.905 Y140.004 E27.8224
G1 X139.664 Y139.553 E27.83941
G1 X139.34 Y139.16 E27.85635
G1 X138.947 Y138.836 E27.87329
G1 X138.496 Y138.595 E27.8903
G1 X138.007 Y138.447 E27.90729
G1 X137.53 Y138.4 E27.92323
G1 X85.506 Y138.4 E29.65356
G1 X85.506 Y131.6 E29.87973
G1 X141.53 Y131.6 E31.74309
G1 X142.007 Y131.553 E31.75903
G1 X142.496 Y131.405 E31.77603
G1 X142.947 Y131.164 E31.79303
G1 X143.34 Y130.84 E31.80997
G1 X143.664 Y130.447 E31.82691
G1 X143.905 Y129.996 E31.84392
G1 X144.053 Y129.507 E31.86092
G1 X144.1 Y129.03 E31.87686
G1 X144.1 Y53.006 E34.40543
G1 X150.9 Y53.006 E34.63159
G1 X150.9 Y181.994 E38.92175
G1 X140.1 Y181.994 E39.28096
G0 F6000 X139.7 Y182.394
;TYPE:WALL-OUTER
G1 F1200 X139.7 Y140.99 E40.65807
G1 X139.659 Y140.571 E40.67207
G1 X139.534 Y140.158 E40.68642
G1 X139.33 Y139.777 E40.70079
G1 X139.056 Y139.444 E40.71514
G1 X138.723 Y139.17 E40.72948
G1 X138.342 Y138.966 E40.74385
G1 X137.929 Y138.841 E40.75821
G1 X137.51 Y138.8 E40.77221
G1 X85.106 Y138.8 E42.51517
G1 X85.106 Y131.2 E42.76795
G1 X141.51 Y131.2 E44.64395
G1 X141.929 Y131.159 E44.65796
G1 X142.342 Y131.034 E44.67231
G1 X142.723 Y130.83 E44.68668
G1 X143.056 Y130.556 E44.70103
G1 X143.33 Y130.223 E44.71537
G1 X143.534 Y129.842 E44.72974
G1 X143.659 Y129.429 E44.74409
G1 X143.7 Y129.01 E44.7581
G1 X143.7 Y52.606 E47.2993
G1 X151.3 Y52.606 E47.55208
G1 X151.3 Y182.394 E51.86885
G1 X139.7 Y182.394 E52.25467
G0 F6000 X139.97 Y182.124
G0 X140.21 Y181.604
G0 X140.49 Y181.604
;TYPE:SKIN
G1 F1200 X140.49 Y140.951 E53.60679
G1 X140.437 Y140.417 E53.62464
G1 X140.267 Y139.854 E53.6442
G1 X139.99 Y139.335 E53.66377
G1 X139.617 Y138.883 E53.68326
G1 X139.165 Y138.51 E53.70275
G1 X138.646 Y138.233 E53.72232
G1 X138.083 Y138.063 E53.74188
G1 X137.549 Y138.01 E53.75972
G1 X85.896 Y138.01 E55.47771
G1 X85.896 Y131.99 E55.67794
G1 X141.549 Y131.99 E57.52896
G1 X142.083 Y131.937 E57.54681
G1 X142.646 Y131.767 E57.56637
G1 X143.165 Y131.49 E57.58594
G1 X143.617 Y131.117 E57.60543
G1 X143.99 Y130.665 E57.62492
G1 X144.267 Y130.146 E57.64449
G1 X144.437 Y129.583 E57.66405
G1 X144.49 Y129.049 E57.6819
G1 X144.49 Y53.396 E60.19812
G1 X150.51 Y53.396 E60.39835
G1 X150.51 Y181.604 E64.66257
G1 X140.49 Y181.604 E64.99583
G1 F2700 E59.99583
G0 F6000 X140.21 Y181.604
G0 X139.939 Y140.979
G0 X139.895 Y140.525
G0 X139.756 Y140.066
G0 X139.53 Y139.643
G0 X139.226 Y139.274
G0 X138.857 Y138.97
G0 X138.434 Y138.744
G0 X137.975 Y138.605
G0 X86.371 Y138.29
G0 X86.371 Y137.849
G1 F2700 E64.99583
G1 F1200 X86.055 Y137.532 E65.01072
G0 F6000 X86.055 Y136.967
G1 F1200 X86.937 Y137.849 E65.05221
G0 F6000 X87.503 Y137.849
G1 F1200 X86.055 Y136.401 E65.12032
G0 F6000 X86.055 Y135.835
G1 F1200 X88.068 Y137.849 E65.21502
G0 F6000 X88.634 Y137.849
G1 F1200 X86.055 Y135.27 E65.33633
G0 F6000 X86.055 Y134.704
G1 F1200 X89.2 Y137.849 E65.48426
G0 F6000 X89.765 Y137.849
G1 F1200 X86.055 Y134.138 E65.65879
G0 F6000 X86.055 Y133.573
G1 F1200 X90.331 Y137.849 E65.85992
G0 F6000 X90.897 Y137.849
G1 F1200 X86.055 Y133.007 E66.08768
G0 F6000 X86.055 Y132.441
G1 F1200 X91.462 Y137.849 E66.34203
G0 F6000 X92.028 Y137.849
G1 F1200 X86.329 Y132.149 E66.61012
G0 F6000 X86.894 Y132.149
G1 F1200 X92.594 Y137.849 E66.87823
G0 F6000 X93.159 Y137.849
G1 F1200 X87.46 Y132.149 E67.14631
G0 F6000 X88.026 Y132.149
G1 F1200 X93.725 Y137.849 E67.4144
G0 F6000 X94.291 Y137.849
G1 F1200 X88.591 Y132.149 E67.68251
G0 F6000 X89.157 Y132.149
G1 F1200 X94.856 Y137.849 E67.9506
G0 F6000 X95.422 Y137.849
G1 F1200 X89.723 Y132.149 E68.21869
G0 F6000 X90.289 Y132.149
G1 F1200 X95.988 Y137.849 E68.48677
G0 F6000 X96.554 Y137.849
G1 F1200 X90.854 Y132.149 E68.75488
G0 F6000 X91.42 Y132.149
G1 F1200 X97.119 Y137.849 E69.02297
G0 F6000 X97.685 Y137.849
G1 F1200 X91.986 Y132.149 E69.29106
G0 F6000 X92.551 Y132.149
G1 F1200 X98.251 Y137.849 E69.55917
G0 F6000 X98.816 Y137.849
G1 F1200 X93.117 Y132.149 E69.82725
G0 F6000 X93.683 Y132.149
G1 F1200 X99.382 Y137.849 E70.09534
G0 F6000 X99.948 Y137.849
G1 F1200 X94.248 Y132.149 E70.36345
G0 F6000 X94.814 Y132.149
G1 F1200 X100.513 Y137.849 E70.63154
G0 F6000 X101.079 Y137.849
G1 F1200 X95.38 Y132.149 E70.89963
G0 F6000 X95.945 Y132.149
G1 F1200 X101.645 Y137.849 E71.16774
G0 F6000 X102.21 Y137.849
G1 F1200 X96.511 Y132.149 E71.43582
G0 F6000 X97.077 Y132.149
G1 F1200 X102.776 Y137.849 E71.70391
G0 F6000 X103.342 Y137.849
G1 F1200 X97.642 Y132.149 E71.97202
G0 F6000 X98.208 Y132.149
G1 F1200 X103.907 Y137.849 E72.24011
G0 F6000 X104.473 Y137.849
G1 F1200 X98.774 Y132.149 E72.5082
G0 F6000 X99.34 Y132.149
G1 F1200 X105.039 Y137.849 E72.77628
G0 F6000 X105.604 Y137.849
