;FLAVOR:Marlin
M117 Time Left 4h37m16s
;TIME:16636
;Filament used: 16.5133m
;Layer height: 0.2
;MINX:42.305
;MINY:81.805
;MINZ:0.2
;MAXX:192.695
;MAXY:154.6
;MAXZ:70
;POSTPROCESSED
;Generated with Cura_SteamEngine 4.8.0
M140 S60
M105
M190 S60
M104 S205
M105
M109 S205
M82 ;absolute extrusion mode
; Ender 3 Custom Start G-code
G92 E0 ; Reset Extruder
G28 ; Home all axes
G1 Z2.0 F3000 ; Move Z Axis up little to prevent scratching of Heat Bed
G1 X0.1 Y20 Z0.3 F5000.0 ; Move to start position
G1 X0.1 Y200.0 Z0.3 F1500.0 E15 ; Draw the first line
G1 X0.4 Y200.0 Z0.3 F5000.0 ; Move to side a little
G1 X0.4 Y20 Z0.3 F1500.0 E30 ; Draw the second line
G92 E0 ; Reset Extruder
G1 Z2.0 F3000 ; Move Z Axis up little to prevent scratching of Heat Bed
G1 X5 Y20 Z0.3 F5000.0 ; Move over to prevent blob squish
G92 E0
G92 E0
G1 F2700 E-5
;LAYER_COUNT:350
;LAYER:0
M107
G0 F6000 X103.195 Y85.836 Z0.2
;TYPE:SKIRT
G1 F2700 E0
G1 F1200 X103.797 Y85.14 E0.03061
G1 X104.457 Y84.498 E0.06123
G1 X105.17 Y83.916 E0.09184
G1 X105.932 Y83.399 E0.12247
G1 X106.735 Y82.949 E0.15309
G1 X107.574 Y82.571 E0.18369
G1 X108.443 Y82.266 E0.21432
G1 X109.335 Y82.039 E0.24494
G1 X110.244 Y81.89 E0.27557
G1 X111.211 Y81.818 E0.30783
G1 X111.533 Y81.809 E0.31854
G1 X111.83 Y81.805 E0.32842
G1 X122.949 Y81.807 E0.69824
G1 X123.648 Y81.817 E0.72149
G1 X124.567 Y81.87 E0.75211
G1 X125.478 Y82.003 E0.78273
G1 X126.374 Y82.214 E0.81334
G1 X127.248 Y82.502 E0.84395
G1 X128.094 Y82.865 E0.87457
G1 X128.906 Y83.3 E0.90521
G1 X129.676 Y83.804 E0.93582
G1 X130.4 Y84.373 E0.96644
G1 X131.072 Y85.002 E0.99706
G1 X131.687 Y85.688 E1.0277
G1 X132.442 Y86.73 E1.0705
G1 X132.9 Y87.451 E1.09891
G1 X134.334 Y89.638 E1.18589
G1 X135.76 Y91.681 E1.26876
G1 X137.283 Y93.738 E1.35389
G1 X138.836 Y95.717 E1.43755
G1 X140.458 Y97.665 E1.52186
G1 X142.133 Y99.565 E1.60611
G1 X143.834 Y101.39 E1.68909
G1 X145.633 Y103.215 E1.77432
G1 X147.45 Y104.954 E1.85797
G1 X149.331 Y106.657 E1.94237
G1 X151.266 Y108.311 E2.02703
G1 X153.212 Y109.881 E2.11019
G1 X155.216 Y111.405 E2.19393
G1 X157.291 Y112.894 E2.27888
G1 X159.381 Y114.307 E2.36279
G1 X161.507 Y115.656 E2.44653
G1 X163.691 Y116.958 E2.5311
G1 X165.892 Y118.187 E2.61495
G1 X168.139 Y119.359 E2.69924
G1 X170.409 Y120.463 E2.78319
G1 X172.716 Y121.504 E2.86737
G1 X175.064 Y122.489 E2.95206
G1 X177.418 Y123.393 E3.03593
G1 X179.795 Y124.232 E3.11977
G1 X182.184 Y125 E3.20323
G1 X184.765 Y125.751 E3.29264
G1 X184.927 Y125.796 E3.29823
G1 X185.802 Y126.081 E3.32884
G1 X186.65 Y126.441 E3.35948
G1 X187.463 Y126.873 E3.3901
G1 X188.235 Y127.374 E3.42071
G1 X188.961 Y127.94 E3.45133
G1 X189.635 Y128.567 E3.48195
G1 X190.252 Y129.25 E3.51256
G1 X190.808 Y129.984 E3.54318
G1 X191.298 Y130.764 E3.57382
G1 X191.718 Y131.583 E3.60444
G1 X192.066 Y132.435 E3.63505
G1 X192.338 Y133.315 E3.66568
G1 X192.533 Y134.215 E3.69631
G1 X192.649 Y135.128 E3.72692
G1 X192.682 Y135.711 E3.74634
G1 X192.691 Y136.032 E3.75702
G1 X192.695 Y136.331 E3.76697
G1 X192.693 Y143.412 E4.00248
G1 X192.684 Y144.124 E4.02617
G1 X192.633 Y145.043 E4.05678
G1 X192.501 Y145.954 E4.0874
G1 X192.292 Y146.851 E4.11803
G1 X192.005 Y147.726 E4.14866
G1 X191.643 Y148.572 E4.17926
G1 X191.21 Y149.385 E4.2099
G1 X190.707 Y150.156 E4.24052
G1 X190.14 Y150.881 E4.27113
G1 X189.511 Y151.554 E4.30177
G1 X188.827 Y152.17 E4.33238
G1 X188.092 Y152.724 E4.363
G1 X187.311 Y153.212 E4.39363
G1 X186.491 Y153.631 E4.42425
G1 X185.638 Y153.977 E4.45487
G1 X184.758 Y154.247 E4.48549
G1 X183.858 Y154.441 E4.51611
G1 X182.945 Y154.555 E4.54671
G1 X182.402 Y154.585 E4.5648
G1 X182.068 Y154.595 E4.57591
G1 X181.751 Y154.6 E4.58646
G1 X53.475 Y154.599 E8.85293
G1 X52.777 Y154.59 E8.87615
G1 X51.858 Y154.538 E8.90677
G1 X50.947 Y154.407 E8.93738
G1 X50.051 Y154.197 E8.96799
G1 X49.176 Y153.91 E8.99861
G1 X48.329 Y153.548 E9.02925
G1 X47.517 Y153.114 E9.05987
G1 X46.746 Y152.612 E9.09047
G1 X46.021 Y152.044 E9.12111
G1 X45.348 Y151.415 E9.15175
G1 X44.733 Y150.731 E9.18234
G1 X44.179 Y149.996 E9.21295
G1 X43.691 Y149.215 E9.24358
G1 X43.272 Y148.395 E9.27421
G1 X42.926 Y147.542 E9.30483
G1 X42.656 Y146.662 E9.33544
G1 X42.463 Y145.761 E9.36609
G1 X42.349 Y144.848 E9.39669
G1 X42.317 Y144.259 E9.41631
G1 X42.308 Y143.903 E9.42815
G1 X42.305 Y143.633 E9.43713
G1 X42.307 Y136.514 E9.67391
G1 X42.317 Y135.849 E9.69603
G1 X42.371 Y134.93 E9.72665
G1 X42.504 Y134.019 E9.75727
G1 X42.716 Y133.123 E9.7879
G1 X43.005 Y132.248 E9.81855
G1 X43.369 Y131.403 E9.84915
G1 X43.804 Y130.592 E9.87976
G1 X44.309 Y129.821 E9.91041
G1 X44.878 Y129.098 E9.94101
G1 X45.508 Y128.426 E9.97165
G1 X46.194 Y127.812 E10.00227
G1 X46.93 Y127.26 E10.03287
G1 X47.712 Y126.773 E10.06351
G1 X48.533 Y126.357 E10.09412
G1 X49.387 Y126.013 E10.12475
G1 X49.944 Y125.833 E10.14421
G1 X51.079 Y125.503 E10.18353
G1 X51.658 Y125.343 E10.20351
G1 X54.046 Y124.611 E10.28658
G1 X56.443 Y123.8 E10.37074
G1 X58.842 Y122.914 E10.4558
G1 X61.184 Y121.972 E10.53976
G1 X63.487 Y120.969 E10.62331
G1 X65.769 Y119.897 E10.70717
G1 X68.043 Y118.75 E10.79188
G1 X70.272 Y117.545 E10.87615
G1 X72.446 Y116.289 E10.95966
G1 X74.616 Y114.951 E11.04445
G1 X76.701 Y113.584 E11.12738
G1 X78.794 Y112.125 E11.21223
G1 X80.849 Y110.605 E11.29725
G1 X82.803 Y109.072 E11.37985
G1 X84.756 Y107.448 E11.46433
G1 X86.652 Y105.778 E11.54837
G1 X88.507 Y104.05 E11.63269
G1 X90.317 Y102.266 E11.71722
G1 X92.059 Y100.447 E11.80099
G1 X93.739 Y98.592 E11.88423
G1 X95.398 Y96.653 E11.9691
G1 X96.997 Y94.672 E12.05377
G1 X98.524 Y92.667 E12.1376
G1 X99.997 Y90.615 E12.22161
G1 X101.403 Y88.535 E12.30512
G1 X102.348 Y87.048 E12.36372
G1 X102.655 Y86.582 E12.38228
G1 X103.195 Y85.836 E12.41291
G0 F6000 X103.519 Y86.071
G1 F1200 X104.111 Y85.389 E12.44294
G1 X104.762 Y84.763 E12.47298
G1 X105.465 Y84.196 E12.50302
G1 X106.215 Y83.694 E12.53304
G1 X107.008 Y83.26 E12.56311
G1 X107.835 Y82.898 E12.59313
G1 X108.691 Y82.61 E12.62317
G1 X109.569 Y82.4 E12.6532
G1 X110.463 Y82.268 E12.68325
G1 X111.222 Y82.218 E12.70855
G1 X111.544 Y82.209 E12.71927
G1 X111.83 Y82.205 E12.72878
G1 X122.943 Y82.207 E13.0984
G1 X123.642 Y82.217 E13.12165
G1 X124.543 Y82.27 E13.15167
G1 X125.437 Y82.402 E13.18173
G1 X126.315 Y82.613 E13.21176
G1 X127.171 Y82.901 E13.2418
G1 X127.998 Y83.263 E13.27183
G1 X128.79 Y83.697 E13.30186
G1 X129.541 Y84.2 E13.33193
G1 X130.244 Y84.767 E13.36197
G1 X130.894 Y85.394 E13.392
G1 X131.486 Y86.076 E13.42204
G1 X132.104 Y86.944 E13.45748
G1 X132.571 Y87.679 E13.48644
G1 X133.999 Y89.856 E13.57304
G1 X135.443 Y91.926 E13.65698
G1 X136.962 Y93.977 E13.74187
G1 X138.513 Y95.953 E13.82542
G1 X140.151 Y97.922 E13.91061
G1 X141.841 Y99.838 E13.99558
G1 X143.556 Y101.678 E14.07924
G1 X145.337 Y103.486 E14.16365
G1 X147.188 Y105.257 E14.24886
G1 X149.066 Y106.956 E14.33309
G1 X151.001 Y108.61 E14.41776
G1 X152.964 Y110.194 E14.50165
G1 X154.986 Y111.733 E14.58617
G1 X157.08 Y113.235 E14.67188
G1 X159.149 Y114.633 E14.75493
G1 X161.31 Y116.004 E14.84005
G1 X163.471 Y117.293 E14.92374
G1 X165.719 Y118.548 E15.00937
G1 X167.958 Y119.716 E15.09336
G1 X170.247 Y120.829 E15.17802
G1 X172.545 Y121.867 E15.26189
G1 X174.931 Y122.867 E15.34793
G1 X177.245 Y123.756 E15.43038
G1 X179.677 Y124.615 E15.51617
G1 X182.082 Y125.388 E15.60019
G1 X184.554 Y126.107 E15.68581
G1 X184.82 Y126.181 E15.695
G1 X185.678 Y126.462 E15.72503
G1 X186.509 Y126.817 E15.75508
G1 X187.304 Y127.244 E15.7851
G1 X188.059 Y127.74 E15.81514
G1 X188.767 Y128.301 E15.84519
G1 X189.423 Y128.922 E15.87523
G1 X190.021 Y129.598 E15.90525
G1 X190.556 Y130.325 E15.93527
G1 X191.026 Y131.097 E15.96533
G1 X191.425 Y131.907 E15.99536
G1 X191.751 Y132.749 E16.02539
G1 X192.002 Y133.617 E16.05545
G1 X192.174 Y134.503 E16.08547
G1 X192.282 Y135.722 E16.12617
G1 X192.291 Y136.043 E16.13685
G1 X192.295 Y136.33 E16.1464
G1 X192.293 Y143.407 E16.38178
G1 X192.284 Y144.119 E16.40546
G1 X192.233 Y145.021 E16.43551
G1 X192.102 Y145.914 E16.46553
G1 X191.892 Y146.793 E16.49559
G1 X191.606 Y147.649 E16.52561
G1 X191.245 Y148.477 E16.55565
G1 X190.812 Y149.27 E16.5857
G1 X190.311 Y150.021 E16.61573
G1 X189.745 Y150.725 E16.64577
G1 X189.12 Y151.376 E16.67579
G1 X188.439 Y151.969 E16.70582
G1 X187.708 Y152.5 E16.73587
G1 X186.933 Y152.964 E16.76591
G1 X186.121 Y153.358 E16.79593
G1 X185.276 Y153.678 E16.82598
G1 X184.407 Y153.922 E16.85601
G1 X183.519 Y154.089 E16.88606
G1 X182.39 Y154.185 E16.92374
G1 X182.056 Y154.195 E16.93486
G1 X181.751 Y154.2 E16.945
G1 X53.48 Y154.199 E21.21131
G1 X52.782 Y154.19 E21.23453
G1 X51.881 Y154.139 E21.26455
G1 X50.987 Y154.007 E21.2946
G1 X50.109 Y153.798 E21.32462
G1 X49.252 Y153.511 E21.35468
G1 X48.425 Y153.15 E21.3847
G1 X47.632 Y152.717 E21.41475
G1 X46.881 Y152.216 E21.44477
G1 X46.177 Y151.65 E21.47482
G1 X45.526 Y151.024 E21.50486
G1 X44.933 Y150.343 E21.53489
G1 X44.403 Y149.612 E21.56492
G1 X43.939 Y148.837 E21.59496
G1 X43.545 Y148.024 E21.62501
G1 X43.225 Y147.18 E21.65503
G1 X42.981 Y146.31 E21.68509
G1 X42.815 Y145.422 E21.71513
G1 X42.717 Y144.249 E21.75428
G1 X42.708 Y143.893 E21.76613
G1 X42.705 Y143.634 E21.77474
G1 X42.707 Y136.52 E22.01136
G1 X42.717 Y135.855 E22.03348
G1 X42.771 Y134.953 E22.06353
G1 X42.904 Y134.06 E22.09356
G1 X43.115 Y133.182 E22.12359
G1 X43.404 Y132.326 E22.15364
G1 X43.767 Y131.499 E22.18368
G1 X44.201 Y130.708 E22.21369
G1 X44.704 Y129.957 E22.24375
G1 X45.272 Y129.255 E22.27379
G1 X45.899 Y128.605 E22.30383
G1 X46.581 Y128.013 E22.33386
G1 X47.313 Y127.484 E22.3639
G1 X48.089 Y127.022 E22.39394
G1 X48.903 Y126.631 E22.42398
G1 X50.056 Y126.217 E22.46472
G1 X51.186 Y125.888 E22.50387
G1 X51.767 Y125.728 E22.52391
G1 X54.186 Y124.986 E22.60807
G1 X56.605 Y124.168 E22.693
G1 X58.951 Y123.301 E22.77618
G1 X61.327 Y122.346 E22.86135
G1 X63.667 Y121.326 E22.94626
G1 X65.94 Y120.259 E23.02977
G1 X68.234 Y119.101 E23.11524
G1 X70.471 Y117.892 E23.19981
G1 X72.661 Y116.626 E23.28395
G1 X74.799 Y115.309 E23.36747
G1 X76.968 Y113.886 E23.45375
G1 X79.015 Y112.46 E23.53672
G1 X81.066 Y110.942 E23.62159
G1 X83.082 Y109.361 E23.7068
G1 X85.013 Y107.756 E23.79032
G1 X86.923 Y106.073 E23.87499
G1 X88.778 Y104.345 E23.95931
G1 X90.604 Y102.545 E24.04459
G1 X92.327 Y100.746 E24.12744
G1 X94.056 Y98.837 E24.2131
G1 X95.729 Y96.881 E24.29871
G1 X97.28 Y94.959 E24.38086
G1 X98.851 Y92.896 E24.4671
G1 X100.321 Y90.85 E24.5509
G1 X101.745 Y88.743 E24.63548
G1 X102.682 Y87.269 E24.69357
G1 X102.989 Y86.803 E24.71213
G1 X103.519 Y86.071 E24.74219
G1 F2700 E19.74219
;MESH:yendright.stl
G0 F6000 X110.835 Y92.825
G0 X111.92 Y92.825
G0 X122.718 Y93.188
G0 X123.061 Y134.021
G0 X123.105 Y134.475
G0 X123.244 Y134.934
G0 X123.47 Y135.357
G0 X123.774 Y135.726
G0 X124.993 Y136.553
;TYPE:WALL-INNER
G1 F2700 E24.74219
G1 F1200 X125.47 Y136.6 E24.75813
G1 X181.296 Y136.6 E26.61491
G1 X181.495 Y136.6 E26.62153
G1 X181.495 Y136.799 E26.62581
G1 X181.494 Y143.4 E26.84536
G1 X53.704 Y143.4 E31.09568
G1 X53.505 Y143.4 E31.10229
G1 X53.505 Y143.201 E31.10658
G1 X53.506 Y136.6 E31.32613
G1 X109.53 Y136.6 E33.18949
G1 X110.007 Y136.553 E33.20543
G1 X110.496 Y136.405 E33.22243
G1 X110.947 Y136.164 E33.23944
G1 X111.34 Y135.84 E33.25638
G1 X111.664 Y135.447 E33.27332
G1 X111.905 Y134.996 E33.29032
G1 X112.053 Y134.507 E33.30732
G1 X112.1 Y134.03 E33.32326
G1 X112.1 Y93.204 E34.68114
G1 X112.1 Y93.005 E34.68776
G1 X112.299 Y93.005 E34.69204
G1 X122.9 Y93.006 E35.04463
G1 X122.9 Y134.03 E36.40909
G1 X122.947 Y134.507 E36.42503
G1 X123.095 Y134.996 E36.44203
G1 X123.336 Y135.447 E36.45903
G1 X123.66 Y135.84 E36.47598
G1 X124.053 Y136.164 E36.49292
G1 X124.504 Y136.405 E36.50992
G1 X124.993 Y136.553 E36.52692
G0 F6000 X125.071 Y136.159
;TYPE:WALL-OUTER
G1 F1200 X125.49 Y136.2 E36.54092
G1 X181.895 Y136.2 E38.41696
G1 X181.894 Y143.8 E38.66973
G1 X53.105 Y143.8 E42.95327
G1 X53.106 Y136.2 E43.20605
G1 X109.51 Y136.2 E45.08206
G1 X109.929 Y136.159 E45.09606
G1 X110.342 Y136.034 E45.11041
G1 X110.723 Y135.83 E45.12478
G1 X111.056 Y135.556 E45.13913
G1 X111.33 Y135.223 E45.15347
G1 X111.534 Y134.842 E45.16784
G1 X111.659 Y134.429 E45.1822
G1 X111.7 Y134.01 E45.1962
G1 X111.7 Y92.605 E46.57333
G1 X123.3 Y92.606 E46.95915
G1 X123.3 Y134.01 E48.33625
G1 X123.341 Y134.429 E48.35026
G1 X123.466 Y134.842 E48.36461
G1 X123.67 Y135.223 E48.37898
G1 X123.944 Y135.556 E48.39333
G1 X124.277 Y135.83 E48.40767
G1 X124.658 Y136.034 E48.42204
G1 X125.071 Y136.159 E48.4364
G0 F6000 X124.986 Y136.59
G0 X124.917 Y136.937
;TYPE:SKIN
G1 F1200 X125.451 Y136.99 E48.45424
G1 X181.105 Y136.99 E50.3053
G1 X181.104 Y143.01 E50.50553
G1 X53.895 Y143.01 E54.73652
G1 X53.896 Y136.99 E54.93674
G1 X109.549 Y136.99 E56.78777
G1 X110.083 Y136.937 E56.80562
G1 X110.646 Y136.767 E56.82518
G1 X111.165 Y136.49 E56.84475
G1 X111.617 Y136.117 E56.86424
G1 X111.99 Y135.665 E56.88373
G1 X112.267 Y135.146 E56.9033
G1 X112.437 Y134.583 E56.92286
G1 X112.49 Y134.049 E56.9407
G1 X112.49 Y93.395 E58.29286
G1 X122.51 Y93.396 E58.62613
G1 X122.51 Y134.049 E59.97825
G1 X122.563 Y134.583 E59.9961
G1 X122.733 Y135.146 E60.01566
G1 X123.01 Y135.665 E60.03523
G1 X123.383 Y136.117 E60.05472
G1 X123.835 Y136.49 E60.07421
G1 X124.354 Y136.767 E60.09378
G1 X124.917 Y136.937 E60.11334
G1 F2700 E55.11334
G0 F6000 X124.971 Y136.662
G0 X181.313 Y136.782
G0 X181.384 Y137.387
G0 X180.944 Y137.386
G1 F2700 E60.11334
G1 F1200 X180.708 Y137.15 E60.12444
G0 F6000 X180.142 Y137.15
G1 F1200 X180.944 Y137.952 E60.16216
G0 F6000 X180.944 Y138.517
G1 F1200 X179.576 Y137.15 E60.22649
G0 F6000 X179.011 Y137.15
G1 F1200 X180.944 Y139.083 E60.31741
G0 F6000 X180.944 Y139.649
G1 F1200 X178.445 Y137.15 E60.43495
G0 F6000 X177.879 Y137.15
G1 F1200 X180.943 Y140.214 E60.57907
G0 F6000 X180.943 Y140.78
G1 F1200 X177.314 Y137.15 E60.74979
G0 F6000 X176.748 Y137.15
G1 F1200 X180.943 Y141.345 E60.94711
G0 F6000 X180.943 Y141.911
G1 F1200 X176.182 Y137.15 E61.17106
G0 F6000 X175.617 Y137.15
G1 F1200 X180.943 Y142.477 E61.4216
G0 F6000 X180.749 Y142.849
G1 F1200 X175.051 Y137.15 E61.68964
G0 F6000 X174.485 Y137.15
G1 F1200 X180.184 Y142.849 E61.9577
G0 F6000 X179.618 Y142.849
G1 F1200 X173.919 Y137.15 E62.22577
G0 F6000 X173.354 Y137.15
G1 F1200 X179.052 Y142.849 E62.49381
G0 F6000 X178.487 Y142.849
G1 F1200 X172.788 Y137.15 E62.76187
G0 F6000 X172.222 Y137.15
G1 F1200 X177.921 Y142.849 E63.02993
G0 F6000 X177.355 Y142.849
G1 F1200 X171.657 Y137.15 E63.29797
G0 F6000 X171.091 Y137.15
G1 F1200 X176.79 Y142.849 E63.56604
G0 F6000 X176.224 Y142.849
G1 F1200 X170.525 Y137.15 E63.8341
G0 F6000 X169.96 Y137.15
G1 F1200 X175.658 Y142.849 E64.10214
G0 F6000 X175.093 Y142.849
G1 F1200 X169.394 Y137.15 E64.3702
G0 F6000 X168.828 Y137.15
G1 F1200 X174.527 Y142.849 E64.63827
G0 F6000 X173.961 Y142.849
G1 F1200 X168.263 Y137.15 E64.90631
G0 F6000 X167.697 Y137.15
G1 F1200 X173.396 Y142.849 E65.17437
G0 F6000 X172.83 Y142.849
G1 F1200 X167.131 Y137.15 E65.44243
G0 F6000 X166.566 Y137.15
G1 F1200 X172.264 Y142.849 E65.71047
G0 F6000 X171.698 Y142.849
G1 F1200 X166 Y137.15 E65.97851
G0 F6000 X165.434 Y137.15
G1 F1200 X171.133 Y142.849 E66.24658
G0 F6000 X170.567 Y142.849
G1 F1200 X164.869 Y137.15 E66.51462
G0 F6000 X164.303 Y137.15
G1 F1200 X170.001 Y142.849 E66.78266
G0 F6000 X169.436 Y142.849
G1 F1200 X163.737 Y137.15 E67.05072
G0 F6000 X163.171 Y137.15
G1 F1200 X168.87 Y142.849 E67.31878
G0 F6000 X168.304 Y142.849
G1 F1200 X162.606 Y137.15 E67.58682
G0 F6000 X162.04 Y137.15
G1 F1200 X167.739 Y142.849 E67.85489
G0 F6000 X167.173 Y142.849
G1 F1200 X161.474 Y137.15 E68.12295
G0 F6000 X160.909 Y137.15
G1 F1200 X166.607 Y142.849 E68.39099
G0 F6000 X166.042 Y142.849
G1 F1200 X160.343 Y137.15 E68.65906
G0 F6000 X159.777 Y137.15
G1 F1200 X165.476 Y142.849 E68.92712
G0 F6000 X164.91 Y142.849
G1 F1200 X159.212 Y137.15 E69.19516
G0 F6000 X158.646 Y137.15
G1 F1200 X164.345 Y142.849 E69.46322
G0 F6000 X163.779 Y142.849
G1 F1200 X158.08 Y137.15 E69.73129
G0 F6000 X157.515 Y137.15
G1 F1200 X163.213 Y142.849 E69.99933
G0 F6000 X162.647 Y142.849
G1 F1200 X156.949 Y137.15 E70.26737
G0 F6000 X156.383 Y137.15
G1 F1200 X162.082 Y142.849 E70.53543
G0 F6000 X161.516 Y142.849
G1 F1200 X155.818 Y137.15 E70.80347
