;FLAVOR:Marlin
M117 Time Left 4h21m33s
;TIME:15693
;Filament used: 15.1295m
;Layer height: 0.2
;MINX:74.306
;MINY:41.806
;MINZ:0.2
;MAXX:162.1
;MAXY:193.195
;MAXZ:70
;POSTPROCESSED
;Generated with Cura_SteamEngine 4.8.0
M140 S60
M105
M190 S60
M104 S205
M105
M109 S205
M82 ;absolute extrusion mode
; Ender 3 Custom Start G-code
G92 E0 ; Reset Extruder
G28 ; Home all axes
G1 Z2.0 F3000 ; Move Z Axis up little to prevent scratching of Heat Bed
G1 X0.1 Y20 Z0.3 F5000.0 ; Move to start position
G1 X0.1 Y200.0 Z0.3 F1500.0 E15 ; Draw the first line
G1 X0.4 Y200.0 Z0.3 F5000.0 ; Move to side a little
G1 X0.4 Y20 Z0.3 F1500.0 E30 ; Draw the second line
G92 E0 ; Reset Extruder
G1 Z2.0 F3000 ; Move Z Axis up little to prevent scratching of Heat Bed
G1 X5 Y20 Z0.3 F5000.0 ; Move over to prevent blob squish
G92 E0
G92 E0
G1 F2700 E-5
;LAYER_COUNT:350
;LAYER:0
M107
G0 F6000 X78.189 Y87.816 Z0.2
;TYPE:SKIRT
G1 F2700 E0
G1 F1200 X78.925 Y87.263 E0.03062
G1 X79.707 Y86.776 E0.06126
G1 X80.528 Y86.359 E0.09189
G1 X81.357 Y86.023 E0.12164
G1 X81.946 Y85.815 E0.14241
G1 X83.6 Y85.254 E0.2005
G1 X85.992 Y84.367 E0.28536
G1 X88.335 Y83.424 E0.36936
G1 X90.644 Y82.415 E0.45317
G1 X92.929 Y81.34 E0.53716
G1 X95.171 Y80.206 E0.62073
G1 X97.439 Y78.978 E0.70651
G1 X99.591 Y77.732 E0.78921
G1 X101.767 Y76.39 E0.87425
G1 X103.851 Y75.022 E0.95716
G1 X105.936 Y73.566 E1.04174
G1 X107.979 Y72.052 E1.12632
G1 X109.949 Y70.503 E1.20967
G1 X111.915 Y68.866 E1.29476
G1 X113.811 Y67.195 E1.37882
G1 X115.647 Y65.483 E1.46231
G1 X117.441 Y63.709 E1.54623
G1 X119.204 Y61.867 E1.63103
G1 X120.869 Y60.025 E1.71361
G1 X122.552 Y58.053 E1.79984
G1 X124.129 Y56.097 E1.88341
G1 X125.647 Y54.101 E1.96681
G1 X127.117 Y52.051 E2.05072
G1 X128.55 Y49.928 E2.13591
G1 X129.887 Y47.82 E2.21893
G1 X130.493 Y46.84 E2.25726
G1 X131.011 Y46.079 E2.28787
G1 X131.593 Y45.365 E2.31851
G1 X132.235 Y44.705 E2.34914
G1 X132.931 Y44.103 E2.37974
G1 X133.677 Y43.563 E2.41037
G1 X134.467 Y43.091 E2.44098
G1 X135.295 Y42.689 E2.47159
G1 X136.155 Y42.36 E2.50222
G1 X137.04 Y42.106 E2.53284
G1 X137.944 Y41.931 E2.56347
G1 X139.212 Y41.819 E2.60581
G1 X139.533 Y41.81 E2.61649
G1 X139.83 Y41.806 E2.62637
G1 X150.793 Y41.806 E2.991
G1 X151.643 Y41.817 E3.01927
G1 X152.562 Y41.87 E3.04989
G1 X153.473 Y42.003 E3.08051
G1 X154.369 Y42.214 E3.11113
G1 X155.243 Y42.502 E3.14173
G1 X156.09 Y42.865 E3.17238
G1 X156.901 Y43.3 E3.20299
G1 X157.671 Y43.804 E3.2336
G1 X158.395 Y44.373 E3.26423
G1 X159.067 Y45.003 E3.29486
G1 X159.682 Y45.688 E3.32548
G1 X160.235 Y46.424 E3.3561
G1 X160.722 Y47.205 E3.38671
G1 X161.139 Y48.026 E3.41734
G1 X161.484 Y48.88 E3.44798
G1 X161.753 Y49.76 E3.47858
G1 X161.945 Y50.661 E3.50922
G1 X162.058 Y51.574 E3.53982
G1 X162.087 Y52.118 E3.55794
G1 X162.096 Y52.438 E3.56859
G1 X162.1 Y52.736 E3.5785
G1 X162.099 Y181.99 E7.8775
G1 X162.09 Y182.717 E7.90169
G1 X162.039 Y183.636 E7.9323
G1 X161.908 Y184.548 E7.96294
G1 X161.698 Y185.444 E7.99355
G1 X161.412 Y186.319 E8.02417
G1 X161.051 Y187.166 E8.05479
G1 X160.617 Y187.978 E8.08542
G1 X160.115 Y188.75 E8.11604
G1 X159.547 Y189.475 E8.14668
G1 X158.919 Y190.148 E8.17729
G1 X158.235 Y190.764 E8.20791
G1 X157.5 Y191.318 E8.23852
G1 X156.72 Y191.807 E8.26914
G1 X155.9 Y192.226 E8.29977
G1 X155.047 Y192.572 E8.33038
G1 X154.167 Y192.843 E8.36101
G1 X153.267 Y193.036 E8.39162
G1 X152.353 Y193.151 E8.42226
G1 X151.789 Y193.182 E8.44105
G1 X151.469 Y193.191 E8.4517
G1 X151.169 Y193.195 E8.46168
G1 X144.033 Y193.193 E8.69902
G1 X143.34 Y193.182 E8.72207
G1 X142.421 Y193.127 E8.75269
G1 X141.51 Y192.993 E8.78332
G1 X140.614 Y192.78 E8.81395
G1 X139.74 Y192.491 E8.84457
G1 X138.895 Y192.126 E8.87518
G1 X138.084 Y191.69 E8.90581
G1 X137.314 Y191.185 E8.93644
G1 X136.591 Y190.615 E8.96706
G1 X135.92 Y189.985 E8.99767
G1 X135.307 Y189.298 E9.02829
G1 X134.755 Y188.561 E9.05892
G1 X134.269 Y187.779 E9.08954
G1 X133.853 Y186.958 E9.12016
G1 X133.51 Y186.104 E9.15076
G1 X133.242 Y185.223 E9.18139
G1 X133.015 Y184.084 E9.22002
G1 X132.833 Y182.812 E9.26276
G1 X132.425 Y180.221 E9.35
G1 X131.958 Y177.722 E9.43455
G1 X131.429 Y175.268 E9.51805
G1 X130.83 Y172.837 E9.60132
G1 X130.146 Y170.361 E9.68676
G1 X129.414 Y167.973 E9.76983
G1 X128.593 Y165.543 E9.85514
G1 X127.726 Y163.198 E9.9383
G1 X126.775 Y160.837 E10.02296
G1 X125.771 Y158.532 E10.10658
G1 X124.693 Y156.238 E10.19088
G1 X123.559 Y153.991 E10.27459
G1 X122.346 Y151.747 E10.35944
G1 X121.088 Y149.571 E10.44303
G1 X119.754 Y147.407 E10.52759
G1 X118.381 Y145.313 E10.61087
G1 X116.922 Y143.221 E10.6957
G1 X115.416 Y141.185 E10.77993
G1 X113.87 Y139.216 E10.86319
G1 X112.247 Y137.264 E10.94763
G1 X110.577 Y135.368 E11.03166
G1 X108.849 Y133.513 E11.11598
G1 X107.068 Y131.706 E11.20037
G1 X105.25 Y129.966 E11.28407
G1 X103.375 Y128.268 E11.3682
G1 X101.458 Y126.629 E11.45209
G1 X99.489 Y125.039 E11.53626
G1 X97.46 Y123.495 E11.62107
G1 X95.411 Y122.025 E11.70494
G1 X93.332 Y120.619 E11.78842
G1 X91.189 Y119.257 E11.87287
G1 X88.998 Y117.952 E11.95769
G1 X86.833 Y116.742 E12.04018
G1 X84.551 Y115.551 E12.1258
G1 X82.309 Y114.46 E12.20873
G1 X81.174 Y113.946 E12.25017
G1 X80.422 Y113.594 E12.27778
G1 X79.606 Y113.168 E12.3084
G1 X78.83 Y112.673 E12.33901
G1 X78.1 Y112.112 E12.36963
G1 X77.421 Y111.49 E12.40026
G1 X76.799 Y110.811 E12.43089
G1 X76.238 Y110.081 E12.46151
G1 X75.743 Y109.305 E12.49212
G1 X75.316 Y108.489 E12.52276
G1 X74.963 Y107.639 E12.55337
G1 X74.684 Y106.762 E12.58398
G1 X74.482 Y105.864 E12.61459
G1 X74.359 Y104.951 E12.64523
G1 X74.321 Y104.321 E12.66622
G1 X74.311 Y103.997 E12.67701
G1 X74.306 Y103.67 E12.68788
G1 X74.307 Y96.544 E12.92489
G1 X74.317 Y95.854 E12.94785
G1 X74.37 Y94.935 E12.97846
G1 X74.503 Y94.024 E13.00908
G1 X74.715 Y93.128 E13.03971
G1 X75.003 Y92.254 E13.07031
G1 X75.366 Y91.408 E13.10093
G1 X75.801 Y90.597 E13.13154
G1 X76.305 Y89.826 E13.16218
G1 X76.874 Y89.102 E13.19281
G1 X77.504 Y88.43 E13.22344
G1 X78.189 Y87.816 E13.25404
G0 F6000 X78.577 Y88.017
G1 F1200 X79.309 Y87.488 E13.28408
G1 X80.084 Y87.025 E13.3141
G1 X80.898 Y86.633 E13.34415
G1 X81.491 Y86.4 E13.36535
G1 X82.074 Y86.194 E13.38591
G1 X83.731 Y85.633 E13.4441
G1 X86.145 Y84.737 E13.52974
G1 X88.466 Y83.802 E13.61296
G1 X90.825 Y82.772 E13.69858
G1 X93.115 Y81.695 E13.78275
G1 X95.363 Y80.558 E13.86653
G1 X97.609 Y79.342 E13.95148
G1 X99.823 Y78.06 E14.03657
G1 X101.95 Y76.748 E14.11969
G1 X104.093 Y75.341 E14.20496
G1 X106.181 Y73.883 E14.28966
G1 X108.219 Y72.373 E14.37403
G1 X110.185 Y70.827 E14.45721
G1 X112.19 Y69.157 E14.544
G1 X114.047 Y67.52 E14.62634
G1 X115.935 Y65.76 E14.71218
G1 X117.746 Y63.97 E14.79688
G1 X119.473 Y62.165 E14.87996
G1 X121.204 Y60.25 E14.96582
G1 X122.853 Y58.319 E15.05028
G1 X124.426 Y56.367 E15.13366
G1 X125.975 Y54.33 E15.21877
G1 X127.458 Y52.262 E15.30341
G1 X128.859 Y50.185 E15.38674
G1 X130.29 Y47.93 E15.47557
G1 X130.834 Y47.05 E15.50998
G1 X131.342 Y46.304 E15.54
G1 X131.915 Y45.606 E15.57003
G1 X132.547 Y44.961 E15.60007
G1 X133.233 Y44.374 E15.6301
G1 X133.969 Y43.85 E15.66015
G1 X134.749 Y43.394 E15.6902
G1 X135.565 Y43.008 E15.72022
G1 X136.413 Y42.696 E15.75027
G1 X137.284 Y42.461 E15.78028
G1 X138.174 Y42.303 E15.81034
G1 X139.223 Y42.219 E15.84535
G1 X139.544 Y42.21 E15.85603
G1 X139.83 Y42.206 E15.86554
G1 X150.793 Y42.206 E16.23017
G1 X151.637 Y42.217 E16.25824
G1 X152.539 Y42.27 E16.2883
G1 X153.432 Y42.402 E16.31832
G1 X154.31 Y42.613 E16.34836
G1 X155.166 Y42.901 E16.37839
G1 X155.993 Y43.263 E16.40842
G1 X156.785 Y43.698 E16.43847
G1 X157.536 Y44.2 E16.46852
G1 X158.239 Y44.767 E16.49856
G1 X158.889 Y45.394 E16.5286
G1 X159.481 Y46.076 E16.55863
G1 X160.011 Y46.807 E16.58866
G1 X160.473 Y47.583 E16.6187
G1 X160.866 Y48.396 E16.64874
G1 X161.184 Y49.241 E16.67877
G1 X161.427 Y50.111 E16.70881
G1 X161.592 Y50.999 E16.73885
G1 X161.687 Y52.129 E16.77657
G1 X161.696 Y52.449 E16.78721
G1 X161.7 Y52.736 E16.79676
G1 X161.699 Y181.985 E21.0956
G1 X161.69 Y182.712 E21.11978
G1 X161.639 Y183.614 E21.14983
G1 X161.508 Y184.508 E21.17988
G1 X161.299 Y185.386 E21.2099
G1 X161.013 Y186.243 E21.23995
G1 X160.652 Y187.071 E21.26999
G1 X160.22 Y187.863 E21.3
G1 X159.719 Y188.615 E21.33005
G1 X159.153 Y189.319 E21.3601
G1 X158.528 Y189.97 E21.39011
G1 X157.847 Y190.564 E21.42017
G1 X157.116 Y191.095 E21.45022
G1 X156.342 Y191.559 E21.48023
G1 X155.529 Y191.953 E21.51028
G1 X154.685 Y192.273 E21.5403
G1 X153.815 Y192.518 E21.57037
G1 X152.928 Y192.684 E21.60038
G1 X151.778 Y192.782 E21.63877
G1 X151.458 Y192.791 E21.64941
G1 X151.17 Y192.795 E21.65899
G1 X144.039 Y192.793 E21.89617
G1 X143.346 Y192.782 E21.91922
G1 X142.445 Y192.727 E21.94925
G1 X141.552 Y192.594 E21.97928
G1 X140.674 Y192.381 E22.00933
G1 X139.818 Y192.092 E22.03938
G1 X138.991 Y191.729 E22.06942
G1 X138.2 Y191.293 E22.09946
G1 X137.451 Y190.79 E22.12946
G1 X136.748 Y190.222 E22.15952
G1 X136.099 Y189.594 E22.18956
G1 X135.508 Y188.911 E22.2196
G1 X134.98 Y188.179 E22.24962
G1 X134.518 Y187.402 E22.27969
G1 X134.127 Y186.588 E22.30972
G1 X133.81 Y185.743 E22.33974
G1 X133.568 Y184.873 E22.36977
G1 X133.411 Y184.028 E22.39836
G1 X133.23 Y182.76 E22.44096
G1 X132.82 Y180.157 E22.52861
G1 X132.349 Y177.636 E22.61391
G1 X131.82 Y175.186 E22.69727
G1 X131.212 Y172.715 E22.78191
G1 X130.538 Y170.275 E22.8661
G1 X129.789 Y167.833 E22.95106
G1 X128.975 Y165.425 E23.0356
G1 X128.091 Y163.035 E23.12035
G1 X127.154 Y160.706 E23.20385
G1 X126.128 Y158.352 E23.28926
G1 X125.055 Y156.067 E23.37322
G1 X123.91 Y153.8 E23.45769
G1 X122.693 Y151.548 E23.54283
G1 X121.426 Y149.355 E23.62707
G1 X120.097 Y147.2 E23.71128
G1 X118.717 Y145.094 E23.79502
G1 X117.239 Y142.976 E23.88093
G1 X115.753 Y140.967 E23.96404
G1 X114.159 Y138.937 E24.04988
G1 X112.555 Y137.007 E24.13335
G1 X110.872 Y135.097 E24.21802
G1 X109.144 Y133.242 E24.30234
G1 X107.363 Y131.436 E24.3867
G1 X105.512 Y129.663 E24.47195
G1 X103.639 Y127.968 E24.55597
G1 X101.723 Y126.33 E24.63981
G1 X99.699 Y124.695 E24.72635
G1 X97.73 Y123.197 E24.80864
G1 X95.646 Y121.701 E24.89396
G1 X93.549 Y120.284 E24.97814
G1 X91.378 Y118.904 E25.0637
G1 X89.218 Y117.617 E25.14733
G1 X87.007 Y116.381 E25.23158
G1 X84.761 Y115.209 E25.31584
G1 X82.47 Y114.094 E25.40058
G1 X81.344 Y113.584 E25.4417
G1 X80.592 Y113.232 E25.46931
G1 X79.792 Y112.813 E25.49935
G1 X79.032 Y112.326 E25.52937
G1 X78.318 Y111.772 E25.55943
G1 X77.656 Y111.158 E25.58946
G1 X77.05 Y110.488 E25.61951
G1 X76.507 Y109.767 E25.64953
G1 X76.029 Y109 E25.67959
G1 X75.621 Y108.195 E25.7096
G1 X75.286 Y107.356 E25.73965
G1 X75.026 Y106.491 E25.76969
G1 X74.844 Y105.606 E25.79974
G1 X74.721 Y104.309 E25.84308
G1 X74.711 Y103.985 E25.85386
G1 X74.706 Y103.67 E25.86434
G1 X74.707 Y96.55 E26.10115
G1 X74.717 Y95.86 E26.1241
G1 X74.77 Y94.959 E26.15412
G1 X74.903 Y94.065 E26.18418
G1 X75.114 Y93.187 E26.21421
G1 X75.402 Y92.331 E26.24425
G1 X75.764 Y91.504 E26.27428
G1 X76.198 Y90.712 E26.30432
G1 X76.701 Y89.962 E26.33435
G1 X77.268 Y89.259 E26.36439
G1 X77.895 Y88.609 E26.39443
G1 X78.577 Y88.017 E26.42447
G1 F2700 E21.42447
;MESH:ystepperright.stl
G0 F6000 X85.326 Y95.335
G0 X85.326 Y96.42
G0 X85.688 Y103.218
G0 X141.521 Y103.561
G0 X141.975 Y103.605
G0 X142.434 Y103.744
G0 X142.857 Y103.97
G0 X143.226 Y104.274
G0 X143.53 Y104.643
G0 X143.756 Y105.066
G0 X143.895 Y105.525
G0 X144.1 Y181.994
;TYPE:WALL-INNER
G1 F2700 E26.42447
G1 F1200 X144.1 Y105.97 E28.95304
G1 X144.053 Y105.493 E28.96898
G1 X143.905 Y105.004 E28.98597
G1 X143.664 Y104.553 E29.00298
G1 X143.34 Y104.16 E29.01992
G1 X142.947 Y103.836 E29.03686
G1 X142.496 Y103.595 E29.05387
G1 X142.007 Y103.447 E29.07086
G1 X141.53 Y103.4 E29.0868
G1 X85.506 Y103.4 E30.95017
G1 X85.506 Y96.6 E31.17634
G1 X137.53 Y96.6 E32.90666
G1 X138.007 Y96.553 E32.9226
G1 X138.496 Y96.405 E32.9396
G1 X138.947 Y96.164 E32.9566
G1 X139.34 Y95.84 E32.97355
G1 X139.664 Y95.447 E32.99049
G1 X139.905 Y94.996 E33.00749
G1 X140.053 Y94.507 E33.02449
G1 X140.1 Y94.015 E33.04092
G1 X140.1 Y53.006 E34.40489
G1 X150.9 Y53.006 E34.7641
G1 X150.9 Y181.796 E39.04767
G1 X150.9 Y181.995 E39.05429
G1 X150.701 Y181.995 E39.05857
G1 X144.1 Y181.994 E39.27812
G0 F6000 X143.7 Y182.394
;TYPE:WALL-OUTER
G1 F1200 X143.7 Y105.99 E41.81933
G1 X143.659 Y105.571 E41.83333
G1 X143.534 Y105.158 E41.84768
G1 X143.33 Y104.777 E41.86206
G1 X143.056 Y104.444 E41.8764
G1 X142.723 Y104.17 E41.89075
G1 X142.342 Y103.966 E41.90512
G1 X141.929 Y103.841 E41.91947
G1 X141.51 Y103.8 E41.93347
G1 X85.106 Y103.8 E43.80948
G1 X85.106 Y96.2 E44.06226
G1 X137.51 Y96.2 E45.80522
G1 X137.929 Y96.159 E45.81922
G1 X138.342 Y96.034 E45.83357
G1 X138.723 Y95.83 E45.84795
G1 X139.056 Y95.556 E45.86229
G1 X139.33 Y95.223 E45.87663
G1 X139.534 Y94.842 E45.89101
G1 X139.659 Y94.429 E45.90536
G1 X139.7 Y93.996 E45.91983
G1 X139.7 Y52.606 E47.29646
G1 X151.3 Y52.606 E47.68228
G1 X151.3 Y182.395 E51.99908
G1 X143.7 Y182.394 E52.25186
G0 F6000 X143.97 Y182.124
G0 X144.21 Y181.604
G0 X144.49 Y181.604
;TYPE:SKIN
G1 F1200 X144.49 Y105.951 E54.76809
G1 X144.437 Y105.417 E54.78593
G1 X144.267 Y104.854 E54.8055
G1 X143.99 Y104.335 E54.82506
G1 X143.617 Y103.883 E54.84455
G1 X143.165 Y103.51 E54.86405
G1 X142.646 Y103.233 E54.88361
G1 X142.083 Y103.063 E54.90317
G1 X141.549 Y103.01 E54.92102
G1 X85.896 Y103.01 E56.77205
G1 X85.896 Y96.99 E56.97227
G1 X137.549 Y96.99 E58.69026
G1 X138.083 Y96.937 E58.70811
G1 X138.646 Y96.767 E58.72767
G1 X139.165 Y96.49 E58.74723
G1 X139.617 Y96.117 E58.76673
G1 X139.99 Y95.665 E58.78622
G1 X140.267 Y95.146 E58.80578
G1 X140.437 Y94.583 E58.82534
G1 X140.49 Y94.034 E58.84369
G1 X140.49 Y53.396 E60.19531
G1 X150.51 Y53.396 E60.52858
G1 X150.51 Y181.605 E64.79283
G1 X144.49 Y181.604 E64.99306
G0 F6000 X145.239 Y181.443
G1 F1200 X144.649 Y180.853 E65.02081
G0 F6000 X144.649 Y180.287
G1 F1200 X145.805 Y181.443 E65.07518
G0 F6000 X146.371 Y181.443
G1 F1200 X144.649 Y179.721 E65.15618
G0 F6000 X144.649 Y179.156
G1 F1200 X146.936 Y181.443 E65.26375
G0 F6000 X147.502 Y181.443
G1 F1200 X144.649 Y178.59 E65.39795
G0 F6000 X144.649 Y178.024
G1 F1200 X148.068 Y181.443 E65.55877
G0 F6000 X148.633 Y181.443
G1 F1200 X144.649 Y177.459 E65.74616
G0 F6000 X144.649 Y176.893
G1 F1200 X149.199 Y181.443 E65.96018
G0 F6000 X149.765 Y181.443
G1 F1200 X144.649 Y176.327 E66.20082
G0 F6000 X144.649 Y175.761
G1 F1200 X150.33 Y181.443 E66.46806
G0 F6000 X150.349 Y180.897
G1 F1200 X144.649 Y175.196 E66.7362
G0 F6000 X144.649 Y174.63
G1 F1200 X150.349 Y180.331 E67.00433
G0 F6000 X150.349 Y179.765
G1 F1200 X144.649 Y174.064 E67.27247
G0 F6000 X144.649 Y173.499
G1 F1200 X150.349 Y179.199 E67.54058
G0 F6000 X150.349 Y178.634
G1 F1200 X144.649 Y172.933 E67.80871
G0 F6000 X144.649 Y172.367
G1 F1200 X150.349 Y178.068 E68.07684
G0 F6000 X150.349 Y177.502
G1 F1200 X144.649 Y171.802 E68.34495
G0 F6000 X144.649 Y171.236
G1 F1200 X150.349 Y176.937 E68.61309
G0 F6000 X150.349 Y176.371
G1 F1200 X144.649 Y170.67 E68.88122
G0 F6000 X144.649 Y170.105
G1 F1200 X150.349 Y175.805 E69.14933
G0 F6000 X150.349 Y175.24
G1 F1200 X144.649 Y169.539 E69.41747
G0 F6000 X144.649 Y168.973
G1 F1200 X150.349 Y174.674 E69.6856
G0 F6000 X150.349 Y174.108
G1 F1200 X144.649 Y168.408 E69.95371
G0 F6000 X144.649 Y167.842
G1 F1200 X150.349 Y173.543 E70.22185
G0 F6000 X150.349 Y172.977
G1 F1200 X144.649 Y167.276 E70.48998
G0 F6000 X144.649 Y166.711
G1 F1200 X150.349 Y172.411 E70.75809
G0 F6000 X150.349 Y171.846
G1 F1200 X144.649 Y166.145 E71.02622
G0 F6000 X144.649 Y165.579
G1 F1200 X150.349 Y171.28 E71.29436
G0 F6000 X150.349 Y170.714
G1 F1200 X144.649 Y165.013 E71.56249
G0 F6000 X144.649 Y164.448
G1 F1200 X150.349 Y170.148 E71.8306
G0 F6000 X150.349 Y169.583
G1 F1200 X144.649 Y163.882 E72.09874
G0 F6000 X144.649 Y163.316
G1 F1200 X150.349 Y169.017 E72.36687
G0 F6000 X150.349 Y168.451
G1 F1200 X144.649 Y162.751 E72.63498
G0 F6000 X144.649 Y162.185
G1 F1200 X150.349 Y167.886 E72.90312
G0 F6000 X150.349 Y167.32
G1 F1200 X144.649 Y161.619 E73.17125
G0 F6000 X144.649 Y161.054
G1 F1200 X150.349 Y166.754 E73.43936
G0 F6000 X150.349 Y166.189
G1 F1200 X144.649 Y160.488 E73.70749
G0 F6000 X144.649 Y159.922
